;FLAVOR:Marlin
;TIME:2375
;Filament used: 1.18685m
;Layer height: 0.15
;MINX:81.8
;MINY:66.8
;MINZ:0.3
;MAXX:138.2
;MAXY:153.2
;MAXZ:9
;TARGET_MACHINE.NAME:Anet A8
;Generated with Cura_SteamEngine 5.6.0
M140 S60
M105
M190 S60
M104 S200
M105
M109 S200
M82 ;absolute extrusion mode
G28 X Y
G1 Z15.0 F2000 ;Move the platform
M106 S120
G92 E0
G92 E0
G1 F1500 E-6.5
;LAYER_COUNT:59
;LAYER:0
M107
M204 S1000
G0 F7500 X82.458 Y68.078 Z0.3
;TYPE:SKIRT
G1 F1500 E0
G1 X82.794 Y67.701 E0.02519
G1 X83.185 Y67.38 E0.05043
G1 X83.622 Y67.126 E0.07565
G1 X84.093 Y66.943 E0.10086
G1 X84.588 Y66.837 E0.12612
G1 X84.92 Y66.81 E0.14273
G1 X85.24 Y66.801 E0.15871
G1 X132.339 Y66.8 E2.50848
G1 X133.037 Y66.81 E2.54331
G1 X133.54 Y66.857 E2.56851
G1 X134.03 Y66.983 E2.59376
G1 X134.494 Y67.185 E2.619
G1 X134.92 Y67.457 E2.64422
G1 X135.298 Y67.792 E2.66942
G1 X135.618 Y68.183 E2.69463
G1 X135.873 Y68.62 E2.71987
G1 X136.056 Y69.091 E2.74508
G1 X136.186 Y69.836 E2.78281
G1 X136.254 Y71.095 E2.84571
G1 X136.446 Y73.856 E2.98379
G1 X136.713 Y76.589 E3.12079
G1 X137.059 Y79.328 E3.25852
G1 X137.476 Y82.014 E3.39414
G1 X138.023 Y84.954 E3.54333
G1 X138.127 Y85.47 E3.56959
G1 X138.189 Y86.004 E3.59641
G1 X138.199 Y86.332 E3.61278
G1 X138.2 Y101.238 E4.35645
G1 X138.19 Y101.944 E4.39167
G1 X138.11 Y103.145 E4.45172
G1 X137.953 Y105.918 E4.59029
G1 X137.875 Y108.671 E4.72769
G1 X137.875 Y111.389 E4.86329
G1 X137.953 Y114.141 E5.00065
G1 X138.109 Y116.9 E5.13851
G1 X138.189 Y118.003 E5.19369
G1 X138.199 Y118.332 E5.21011
G1 X138.2 Y133.239 E5.95382
G1 X138.19 Y133.94 E5.9888
G1 X138.136 Y134.477 E6.01573
G1 X137.983 Y135.304 E6.05768
G1 X137.718 Y136.631 E6.1252
G1 X137.259 Y139.315 E6.26105
G1 X136.879 Y142.002 E6.39643
G1 X136.568 Y144.744 E6.53411
G1 X136.337 Y147.48 E6.6711
G1 X136.185 Y150.172 E6.80561
G1 X136.117 Y150.672 E6.83079
G1 X135.97 Y151.156 E6.85602
G1 X135.75 Y151.611 E6.88124
G1 X135.46 Y152.026 E6.9065
G1 X135.109 Y152.389 E6.93169
G1 X134.704 Y152.693 E6.95695
G1 X134.258 Y152.929 E6.98213
G1 X133.779 Y153.092 E7.00737
G1 X133.08 Y153.19 E7.04259
G1 X132.76 Y153.199 E7.05856
G1 X85.666 Y153.2 E9.40809
G1 X84.968 Y153.191 E9.44291
G1 X84.464 Y153.144 E9.46817
G1 X83.974 Y153.019 E9.49339
G1 X83.51 Y152.818 E9.51862
G1 X83.084 Y152.547 E9.54381
G1 X82.705 Y152.212 E9.56905
G1 X82.384 Y151.821 E9.59429
G1 X82.129 Y151.385 E9.61949
G1 X81.945 Y150.914 E9.64471
G1 X81.838 Y150.42 E9.66993
G1 X81.81 Y150.077 E9.6871
G1 X81.801 Y149.744 E9.70372
G1 X81.8 Y70.626 E13.65093
G1 X81.81 Y69.961 E13.68411
G1 X81.858 Y69.458 E13.70932
G1 X81.984 Y68.968 E13.73456
G1 X82.186 Y68.504 E13.75981
G1 X82.458 Y68.078 E13.78503
G1 F1500 E7.28503
;MESH:Anet-a8-psu-cover_front-side.stl
G0 F7500 X91.219 Y76.877
G0 X91.915 Y143.6
;TYPE:WALL-INNER
G1 F1500 E13.78503
G1 X91.761 Y143.551 E13.79309
G1 X91.575 Y143.425 E13.8043
G1 X91.449 Y143.239 E13.81551
G1 X91.4 Y143.078 E13.8239
G1 X91.4 Y76.915 E17.12479
G1 X91.449 Y76.761 E17.13285
G1 X91.575 Y76.575 E17.14406
G1 X91.761 Y76.449 E17.15527
G1 X91.922 Y76.4 E17.16366
G1 X128.08 Y76.4 E18.96759
G1 X128.357 Y76.517 E18.9826
G1 X128.478 Y76.636 E18.99106
G1 X128.568 Y76.803 E19.00053
G1 X128.6 Y77 E19.01048
G1 X128.6 Y143.073 E22.30688
G1 X128.478 Y143.363 E22.32258
G1 X128.357 Y143.483 E22.33108
G1 X128.076 Y143.6 E22.34626
G1 X91.915 Y143.6 E24.15034
G1 F1500 E17.65034
G0 F7500 X128.098 Y143.781
G0 X132.2 Y143.781
G0 X132.4 Y149.4
G1 F1500 E24.15034
G1 X132.4 Y133.9 E24.92364
G1 X132.429 Y133.714 E24.93303
G1 X132.508 Y133.555 E24.94189
G1 X132.742 Y133.357 E24.95718
G1 X133 Y133.3 E24.97037
G1 X134.4 Y133.3 E25.04021
G1 X134.4 Y118.7 E25.76861
G1 X133 Y118.7 E25.83845
G1 X132.742 Y118.643 E25.85164
G1 X132.508 Y118.445 E25.86693
G1 X132.4 Y118.173 E25.88153
G1 X132.4 Y101.9 E26.69339
G1 X132.429 Y101.714 E26.70279
G1 X132.508 Y101.555 E26.71164
G1 X132.742 Y101.357 E26.72694
G1 X133 Y101.3 E26.74012
G1 X134.4 Y101.3 E26.80996
G1 X134.4 Y86.7 E27.53836
G1 X133 Y86.7 E27.60821
G1 X132.742 Y86.643 E27.62139
G1 X132.508 Y86.445 E27.63668
G1 X132.4 Y86.173 E27.65128
G1 X132.4 Y70.6 E28.42822
G1 X85.601 Y70.601 E30.76303
G1 X85.601 Y149.399 E34.69428
G1 X132.4 Y149.4 E37.02909
G0 F7500 X132.8 Y149.8
;TYPE:WALL-OUTER
G1 F1500 X132.8 Y133.856 E37.82454
G1 X132.93 Y133.7 E37.83468
G1 X134.8 Y133.7 E37.92797
G1 X134.8 Y118.3 E38.69628
G1 X132.936 Y118.3 E38.78927
G1 X132.802 Y118.135 E38.79988
G1 X132.8 Y101.856 E39.61204
G1 X132.93 Y101.7 E39.62217
G1 X134.8 Y101.7 E39.71547
G1 X134.8 Y86.3 E40.48378
G1 X132.936 Y86.3 E40.57677
G1 X132.802 Y86.135 E40.58738
G1 X132.8 Y70.2 E41.38238
G1 X85.201 Y70.201 E43.7571
G1 X85.201 Y149.799 E47.72826
G1 X132.8 Y149.8 E50.10298
G0 F7500 X132.8 Y149.6
G1 F1500 E43.60298
G0 F7500 X132.53 Y149.53
G0 X91.957 Y149.219
G0 X91.957 Y143.78
G0 X91.959 Y143.196
G1 F1500 E50.10298
G1 X91.858 Y143.142 E50.1087
G1 X91.802 Y143.035 E50.11472
G1 X91.804 Y76.959 E53.41127
G1 X91.858 Y76.858 E53.41698
G1 X91.965 Y76.802 E53.42301
G1 X128.039 Y76.803 E55.22275
G1 X128.119 Y76.839 E55.22712
G1 X128.2 Y76.947 E55.23386
G1 X128.198 Y143.035 E58.531
G1 X128.16 Y143.121 E58.53569
G1 X128.035 Y143.198 E58.54302
G1 X91.959 Y143.196 E60.34286
G0 F7500 X91.858 Y143.142
G0 X91.818 Y143.066
G1 F1500 E53.84286
G0 F7500 X91.5 Y143.066
G0 X91.572 Y143.428
G0 X128.098 Y143.781
G0 X132.2 Y143.781
G0 X132.04 Y149.04
;TYPE:SKIN
G1 F1500 E60.34286
G1 X85.962 Y149.038 E62.6417
G1 X85.962 Y70.962 E66.53692
G1 X132.04 Y70.96 E68.83577
G1 X132.042 Y86.127 E69.59245
G1 X132.079 Y86.369 E69.60466
G1 X132.216 Y86.665 E69.62094
G1 X132.571 Y86.963 E69.64406
G1 X132.961 Y87.056 E69.66406
G1 X134.04 Y87.06 E69.71789
G1 X134.04 Y100.94 E70.41037
G1 X132.961 Y100.944 E70.4642
G1 X132.571 Y101.037 E70.48421
G1 X132.252 Y101.305 E70.50499
G1 X132.098 Y101.576 E70.52054
G1 X132.042 Y101.874 E70.53567
G1 X132.042 Y118.127 E71.34654
G1 X132.079 Y118.369 E71.35875
G1 X132.216 Y118.665 E71.37502
G1 X132.571 Y118.963 E71.39815
G1 X132.961 Y119.056 E71.41815
G1 X134.04 Y119.06 E71.47198
G1 X134.04 Y132.94 E72.16446
G1 X132.961 Y132.944 E72.21829
G1 X132.571 Y133.037 E72.23829
G1 X132.252 Y133.305 E72.25908
G1 X132.098 Y133.576 E72.27463
G1 X132.042 Y133.874 E72.28976
G1 X132.04 Y149.04 E73.04639
G1 F1500 E66.54639
G0 F7500 X132.038 Y149.299
G0 X91.903 Y149.219
G0 X91.903 Y143.78
G0 X91.852 Y143.96
G1 F1500 E73.04639
G1 X128.127 Y143.958 E74.85616
G1 X128.531 Y143.794 E74.87791
G1 X128.768 Y143.584 E74.89371
G1 X128.958 Y143.225 E74.91397
G1 X128.958 Y76.969 E78.2195
G1 X128.915 Y76.715 E78.23235
G1 X128.786 Y76.448 E78.24714
G1 X128.571 Y76.221 E78.26274
G1 X128.14 Y76.04 E78.28606
G1 X91.869 Y76.042 E80.09563
G1 X91.455 Y76.207 E80.11787
G1 X91.206 Y76.452 E80.13529
G1 X91.04 Y76.838 E80.15626
G1 X91.042 Y143.131 E83.46363
G1 X91.207 Y143.545 E83.48586
G1 X91.454 Y143.795 E83.5034
G1 X91.852 Y143.96 E83.52489
G1 F1500 E77.02489
G0 F7500 X91.905 Y143.702
G0 X91.557 Y143.644
G0 X91.555 Y149.219
G0 X86.612 Y148.837
G1 F1500 E83.52489
G1 X86.161 Y148.387 E83.55668
G0 F7500 X86.161 Y147.821
G1 F1500 X87.177 Y148.837 E83.62836
G0 F7500 X87.743 Y148.837
G1 F1500 X86.161 Y147.255 E83.73998
G0 F7500 X86.161 Y146.69
G1 F1500 X88.309 Y148.837 E83.8915
G0 F7500 X88.874 Y148.837
G1 F1500 X86.161 Y146.124 E84.08291
G0 F7500 X86.161 Y145.558
G1 F1500 X89.44 Y148.837 E84.31426
G0 F7500 X90.006 Y148.837
G1 F1500 X86.161 Y144.992 E84.58555
G0 F7500 X86.161 Y144.427
G1 F1500 X90.571 Y148.837 E84.8967
G0 F7500 X91.137 Y148.837
G1 F1500 X86.161 Y143.861 E85.24778
G0 F7500 X86.161 Y143.295
G1 F1500 X91.703 Y148.837 E85.6388
G0 F7500 X92.268 Y148.837
G1 F1500 X86.161 Y142.73 E86.06968
G0 F7500 X86.161 Y142.164
G1 F1500 X92.834 Y148.837 E86.5405
G0 F7500 X93.4 Y148.837
G1 F1500 X86.161 Y141.598 E87.05125
G0 F7500 X86.161 Y141.033
G1 F1500 X93.966 Y148.837 E87.6019
G0 F7500 X94.531 Y148.837
G1 F1500 X86.161 Y140.467 E88.19245
G0 F7500 X86.161 Y139.901
G1 F1500 X95.097 Y148.837 E88.82293
G0 F7500 X95.663 Y148.837
G1 F1500 X86.161 Y139.336 E89.49331
G0 F7500 X86.161 Y138.77
G1 F1500 X91.023 Y143.632 E89.83635
G0 F7500 X91.366 Y143.975
G1 F1500 X96.228 Y148.837 E90.17939
G0 F7500 X96.794 Y148.837
G1 F1500 X92.116 Y144.159 E90.50945
G0 F7500 X92.681 Y144.159
G1 F1500 X97.36 Y148.837 E90.83955
G0 F7500 X97.925 Y148.837
G1 F1500 X93.247 Y144.159 E91.1696
G0 F7500 X93.813 Y144.159
G1 F1500 X98.491 Y148.837 E91.49966
G0 F7500 X99.057 Y148.837
G1 F1500 X94.378 Y144.159 E91.82976
G0 F7500 X94.944 Y144.159
G1 F1500 X99.622 Y148.837 E92.15981
G0 F7500 X100.188 Y148.837
G1 F1500 X95.51 Y144.159 E92.48987
G0 F7500 X96.076 Y144.159
G1 F1500 X100.754 Y148.837 E92.81993
G0 F7500 X101.319 Y148.837
G1 F1500 X96.641 Y144.159 E93.14999
G0 F7500 X97.206 Y144.158
G1 F1500 X101.885 Y148.837 E93.48012
G0 F7500 X102.451 Y148.837
G1 F1500 X97.772 Y144.158 E93.81025
G0 F7500 X98.338 Y144.158
G1 F1500 X103.016 Y148.837 E94.14034
G0 F7500 X103.582 Y148.837
G1 F1500 X98.903 Y144.158 E94.47047
G0 F7500 X99.469 Y144.158
G1 F1500 X104.148 Y148.837 E94.8006
G0 F7500 X104.714 Y148.837
G1 F1500 X100.035 Y144.158 E95.13073
G0 F7500 X100.6 Y144.158
G1 F1500 X105.279 Y148.837 E95.46085
G0 F7500 X105.845 Y148.837
G1 F1500 X101.166 Y144.158 E95.79098
G0 F7500 X101.732 Y144.158
G1 F1500 X106.411 Y148.837 E96.12111
G0 F7500 X106.976 Y148.837
G1 F1500 X102.297 Y144.157 E96.45128
G0 F7500 X102.862 Y144.157
G1 F1500 X107.542 Y148.837 E96.78147
G0 F7500 X108.108 Y148.837
G1 F1500 X103.428 Y144.157 E97.11167
G0 F7500 X103.994 Y144.157
G1 F1500 X108.673 Y148.837 E97.44184
G0 F7500 X109.24 Y148.838
G1 F1500 X104.559 Y144.157 E97.77211
G0 F7500 X105.125 Y144.157
G1 F1500 X109.805 Y148.838 E98.10234
G0 F7500 X110.371 Y148.838
G1 F1500 X105.691 Y144.157 E98.43258
G0 F7500 X106.256 Y144.157
G1 F1500 X110.937 Y148.838 E98.76285
G0 F7500 X111.502 Y148.838
G1 F1500 X106.822 Y144.157 E99.09308
G0 F7500 X107.388 Y144.157
G1 F1500 X112.068 Y148.838 E99.42332
G0 F7500 X112.634 Y148.838
G1 F1500 X107.953 Y144.157 E99.75359
G0 F7500 X108.518 Y144.157
G1 F1500 X113.2 Y148.838 E100.08389
G0 F7500 X113.765 Y148.838
G1 F1500 X109.084 Y144.157 E100.41416
G0 F7500 X109.65 Y144.157
G1 F1500 X114.331 Y148.838 E100.74443
G0 F7500 X114.897 Y148.838
G1 F1500 X110.216 Y144.157 E101.0747
G0 F7500 X110.781 Y144.157
G1 F1500 X115.462 Y148.838 E101.40497
G0 F7500 X116.028 Y148.838
G1 F1500 X111.347 Y144.157 E101.73524
G0 F7500 X111.913 Y144.157
G1 F1500 X116.594 Y148.838 E102.06551
G0 F7500 X117.159 Y148.838
G1 F1500 X112.478 Y144.157 E102.39578
G0 F7500 X113.043 Y144.156
G1 F1500 X117.725 Y148.838 E102.72612
G0 F7500 X118.291 Y148.838
G1 F1500 X113.609 Y144.156 E103.05646
G0 F7500 X114.175 Y144.156
G1 F1500 X118.856 Y148.838 E103.38677
G0 F7500 X119.422 Y148.838
G1 F1500 X114.74 Y144.156 E103.71711
G0 F7500 X115.306 Y144.156
G1 F1500 X119.988 Y148.838 E104.04745
G0 F7500 X120.553 Y148.838
G1 F1500 X115.872 Y144.156 E104.37775
G0 F7500 X116.437 Y144.156
G1 F1500 X121.119 Y148.838 E104.70809
G0 F7500 X121.685 Y148.838
G1 F1500 X117.003 Y144.156 E105.03843
G0 F7500 X117.569 Y144.156
G1 F1500 X122.25 Y148.838 E105.36874
G0 F7500 X122.816 Y148.838
G1 F1500 X118.134 Y144.155 E105.69911
G0 F7500 X118.699 Y144.155
G1 F1500 X123.382 Y148.838 E106.02952
G0 F7500 X123.948 Y148.838
G1 F1500 X119.265 Y144.155 E106.35994
G0 F7500 X119.831 Y144.155
G1 F1500 X124.513 Y148.838 E106.69031
G0 F7500 X125.079 Y148.838
G1 F1500 X120.396 Y144.155 E107.02072
G0 F7500 X120.962 Y144.155
G1 F1500 X125.645 Y148.838 E107.35113
G0 F7500 X126.21 Y148.838
G1 F1500 X121.528 Y144.155 E107.68151
G0 F7500 X122.094 Y144.155
G1 F1500 X126.776 Y148.838 E108.01188
G0 F7500 X127.342 Y148.838
G1 F1500 X122.659 Y144.155 E108.34229
G0 F7500 X123.224 Y144.155
G1 F1500 X127.907 Y148.838 E108.67271
G0 F7500 X128.473 Y148.838
G1 F1500 X123.79 Y144.155 E109.00312
G0 F7500 X124.356 Y144.155
G1 F1500 X129.039 Y148.838 E109.33353
G0 F7500 X129.604 Y148.838
G1 F1500 X124.921 Y144.155 E109.66394
G0 F7500 X125.487 Y144.155
G1 F1500 X130.17 Y148.838 E109.99435
G0 F7500 X130.736 Y148.838
G1 F1500 X126.053 Y144.155 E110.32476
G0 F7500 X126.618 Y144.155
G1 F1500 X131.301 Y148.838 E110.65517
G0 F7500 X131.84 Y148.811
G1 F1500 X127.184 Y144.155 E110.98368
G0 F7500 X127.75 Y144.155
G1 F1500 X131.84 Y148.245 E111.27225
G0 F7500 X131.84 Y147.679
G1 F1500 X128.277 Y144.116 E111.52364
G0 F7500 X128.676 Y143.949
G1 F1500 X131.84 Y147.114 E111.74691
G0 F7500 X131.84 Y146.548
G1 F1500 X128.95 Y143.657 E111.95085
G0 F7500 X129.149 Y143.291
G1 F1500 X131.841 Y145.983 E112.14079
G0 F7500 X131.841 Y145.417
G1 F1500 X129.155 Y142.731 E112.3303
G0 F7500 X129.155 Y142.165
G1 F1500 X131.841 Y144.852 E112.51984
G0 F7500 X131.841 Y144.286
G1 F1500 X129.155 Y141.6 E112.70936
G0 F7500 X129.155 Y141.034
G1 F1500 X131.842 Y143.721 E112.89894
G0 F7500 X131.842 Y143.155
G1 F1500 X129.155 Y140.468 E113.08852
G0 F7500 X129.155 Y139.903
G1 F1500 X131.842 Y142.59 E113.2781
G0 F7500 X131.842 Y142.024
G1 F1500 X129.155 Y139.337 E113.46769
G0 F7500 X129.155 Y138.771
G1 F1500 X131.842 Y141.458 E113.65727
G0 F7500 X131.842 Y140.893
G1 F1500 X129.155 Y138.206 E113.84685
G0 F7500 X129.155 Y137.64
G1 F1500 X131.842 Y140.328 E114.03647
G0 F7500 X131.842 Y139.762
G1 F1500 X129.155 Y137.074 E114.22609
G0 F7500 X129.155 Y136.509
G1 F1500 X131.842 Y139.196 E114.41567
G0 F7500 X131.843 Y138.631
G1 F1500 X129.155 Y135.943 E114.60532
G0 F7500 X129.155 Y135.377
G1 F1500 X131.843 Y138.066 E114.79501
G0 F7500 X131.843 Y137.5
G1 F1500 X129.155 Y134.812 E114.98466
G0 F7500 X129.155 Y134.246
G1 F1500 X131.843 Y136.934 E115.17432
G0 F7500 X131.843 Y136.369
G1 F1500 X129.155 Y133.68 E115.364
G0 F7500 X129.155 Y133.114
G1 F1500 X131.844 Y135.804 E115.55376
G0 F7500 X131.844 Y135.238
G1 F1500 X129.155 Y132.549 E115.74349
G0 F7500 X129.155 Y131.984
G1 F1500 X131.844 Y134.672 E115.93317
G0 F7500 X131.844 Y134.107
G1 F1500 X129.155 Y131.418 E116.1229
G0 F7500 X129.155 Y130.852
G1 F1500 X131.897 Y133.594 E116.31636
G0 F7500 X132.084 Y133.215
G1 F1500 X129.155 Y130.287 E116.52298
G0 F7500 X129.155 Y129.721
G1 F1500 X132.373 Y132.939 E116.75003
G0 F7500 X132.779 Y132.779
G1 F1500 X129.155 Y129.155 E117.00572
G0 F7500 X129.155 Y128.59
G1 F1500 X133.305 Y132.739 E117.29849
G0 F7500 X133.839 Y132.707
G1 F1500 X129.155 Y128.024 E117.62894
G0 F7500 X129.155 Y127.458
G1 F1500 X133.839 Y132.141 E117.95938
G0 F7500 X133.839 Y131.576
G1 F1500 X129.155 Y126.893 E118.28983
G0 F7500 X129.155 Y126.327
G1 F1500 X133.839 Y131.01 E118.62028
G0 F7500 X133.839 Y130.444
G1 F1500 X129.155 Y125.761 E118.95072
G0 F7500 X129.155 Y125.196
G1 F1500 X133.839 Y129.879 E119.28117
G0 F7500 X133.839 Y129.313
G1 F1500 X129.155 Y124.63 E119.61162
G0 F7500 X129.155 Y124.064
G1 F1500 X133.839 Y128.747 E119.94206
G0 F7500 X133.839 Y128.182
G1 F1500 X129.155 Y123.499 E120.27251
G0 F7500 X129.155 Y122.933
G1 F1500 X133.839 Y127.616 E120.60295
G0 F7500 X133.839 Y127.05
G1 F1500 X129.155 Y122.367 E120.9334
G0 F7500 X129.155 Y121.801
G1 F1500 X133.839 Y126.485 E121.26388
G0 F7500 X133.839 Y125.919
G1 F1500 X129.155 Y121.236 E121.59433
G0 F7500 X129.156 Y120.671
G1 F1500 X133.839 Y125.353 E121.9247
G0 F7500 X133.839 Y124.788
G1 F1500 X129.156 Y120.105 E122.25511
G0 F7500 X129.156 Y119.539
G1 F1500 X133.839 Y124.222 E122.58553
G0 F7500 X133.839 Y123.656
G1 F1500 X129.156 Y118.974 E122.9159
G0 F7500 X129.156 Y118.408
G1 F1500 X133.839 Y123.091 E123.24631
G0 F7500 X133.839 Y122.525
G1 F1500 X129.156 Y117.842 E123.57672
G0 F7500 X129.156 Y117.277
G1 F1500 X133.839 Y121.959 E123.9071
G0 F7500 X133.839 Y121.393
G1 F1500 X129.156 Y116.711 E124.23747
G0 F7500 X129.156 Y116.145
G1 F1500 X133.839 Y120.828 E124.56789
G0 F7500 X133.839 Y120.262
G1 F1500 X132.802 Y119.225 E124.64105
G0 F7500 X133.402 Y119.26
G1 F1500 X133.839 Y119.696 E124.67185
G0 F7500 X134.3 Y119.696
G0 X134.228 Y118.872
G0 X132.572 Y118.528
G0 X132.32 Y118.217
G0 X131.863 Y118.286
G1 F1500 X129.156 Y115.58 E124.86281
G0 F7500 X129.156 Y115.014
G1 F1500 X131.843 Y117.701 E125.05239
G0 F7500 X131.843 Y117.135
G1 F1500 X129.156 Y114.448 E125.24197
G0 F7500 X129.156 Y113.883
G1 F1500 X131.843 Y116.57 E125.43155
