;FLAVOR:Marlin
;TIME:2370
;Filament used: 1.19422m
;Layer height: 0.15
;MINX:81.8
;MINY:65.068
;MINZ:0.3
;MAXX:138.2
;MAXY:154.954
;MAXZ:9
;TARGET_MACHINE.NAME:Anet A8
;Generated with Cura_SteamEngine 5.6.0
M140 S60
M105
M190 S60
M104 S200
M105
M109 S200
M82 ;absolute extrusion mode
G28 X Y
G1 Z15.0 F2000 ;Move the platform
M106 S120
G92 E0
G92 E0
G1 F1500 E-6.5
;LAYER_COUNT:59
;LAYER:0
M107
M204 S1000
G0 F7500 X84.54 Y69.728 Z0.3
;TYPE:SKIRT
G1 F1500 E0
G1 X84.891 Y69.365 E0.02519
G1 X85.296 Y69.061 E0.05046
G1 X85.742 Y68.825 E0.07563
G1 X86.221 Y68.662 E0.10087
G1 X86.826 Y68.568 E0.13142
G1 X87.813 Y68.512 E0.18074
G1 X88.549 Y68.481 E0.21749
G1 X91.288 Y68.288 E0.35448
G1 X94 Y68.018 E0.49045
G1 X96.728 Y67.669 E0.62766
G1 X99.417 Y67.247 E0.76346
G1 X102.111 Y66.746 E0.90017
G1 X104.765 Y66.177 E1.03558
G1 X108.621 Y65.206 E1.23397
G1 X109.18 Y65.117 E1.26221
G1 X109.881 Y65.068 E1.29726
G1 X110.513 Y65.086 E1.32881
G1 X111.119 Y65.164 E1.35929
G1 X111.492 Y65.235 E1.37823
G1 X114.353 Y65.956 E1.52543
G1 X117.019 Y66.551 E1.66171
G1 X119.695 Y67.068 E1.79769
G1 X122.413 Y67.514 E1.9351
G1 X125.11 Y67.878 E2.07088
G1 X127.849 Y68.17 E2.2083
G1 X130.559 Y68.382 E2.34391
G1 X133.3 Y68.518 E2.48083
G1 X135.076 Y68.565 E2.56947
G1 X135.579 Y68.618 E2.5947
G1 X136.067 Y68.75 E2.61992
G1 X136.528 Y68.957 E2.64513
G1 X136.951 Y69.235 E2.67039
G1 X137.325 Y69.575 E2.6956
G1 X137.641 Y69.97 E2.72084
G1 X137.89 Y70.409 E2.74602
G1 X138.067 Y70.883 E2.77126
G1 X138.168 Y71.378 E2.79647
G1 X138.19 Y71.674 E2.81128
G1 X138.199 Y71.994 E2.82725
G1 X138.2 Y151.058 E6.77177
G1 X138.191 Y151.785 E6.80804
G1 X138.145 Y152.288 E6.83324
G1 X138.02 Y152.778 E6.85847
G1 X137.819 Y153.242 E6.8837
G1 X137.548 Y153.669 E6.90893
G1 X137.213 Y154.048 E6.93416
G1 X136.823 Y154.369 E6.95936
G1 X136.387 Y154.625 E6.98459
G1 X135.916 Y154.808 E7.0098
G1 X135.422 Y154.916 E7.03503
G1 X135.081 Y154.944 E7.0521
G1 X134.76 Y154.953 E7.06812
G1 X87.666 Y154.954 E9.41765
G1 X86.968 Y154.945 E9.45247
G1 X86.464 Y154.898 E9.47773
G1 X85.974 Y154.773 E9.50295
G1 X85.51 Y154.572 E9.52818
G1 X85.084 Y154.301 E9.55337
G1 X84.705 Y153.966 E9.57861
G1 X84.384 Y153.575 E9.60385
G1 X84.129 Y153.139 E9.62905
G1 X83.945 Y152.668 E9.65427
G1 X83.838 Y152.174 E9.67949
G1 X83.814 Y151.918 E9.69232
G1 X83.743 Y150.61 E9.75767
G1 X83.554 Y147.898 E9.8933
G1 X83.287 Y145.163 E10.0304
G1 X82.941 Y142.426 E10.16804
G1 X82.525 Y139.746 E10.30334
G1 X81.864 Y136.233 E10.48168
G1 X81.81 Y135.733 E10.50677
G1 X81.801 Y135.415 E10.52264
G1 X81.8 Y120.512 E11.26616
G1 X81.811 Y119.791 E11.30213
G1 X81.89 Y118.601 E11.36163
G1 X82.047 Y115.835 E11.49985
G1 X82.125 Y113.082 E11.63725
G1 X82.125 Y110.365 E11.77281
G1 X82.047 Y107.613 E11.91016
G1 X81.89 Y104.84 E12.04873
G1 X81.81 Y103.734 E12.10405
G1 X81.801 Y103.415 E12.11997
G1 X81.8 Y88.511 E12.86353
G1 X81.811 Y87.805 E12.89876
G1 X81.865 Y87.272 E12.92549
G1 X82.017 Y86.45 E12.96719
G1 X82.283 Y85.123 E13.03471
G1 X82.741 Y82.439 E13.17056
G1 X83.121 Y79.752 E13.30594
G1 X83.432 Y77.01 E13.44362
G1 X83.663 Y74.274 E13.58061
G1 X83.815 Y71.582 E13.71512
G1 X83.883 Y71.082 E13.7403
G1 X84.03 Y70.598 E13.76553
G1 X84.25 Y70.143 E13.79075
G1 X84.54 Y69.728 E13.81601
G1 F1500 E7.31601
;MESH:Anet-a8-psu-cover_back-side.stl
G0 F7500 X86.335 Y72.168
G0 X109.889 Y73.968
;TYPE:WALL-INNER
G1 F1500 E13.81601
G1 X109.373 Y73.866 E13.84225
G1 X108.974 Y73.704 E13.86373
G1 X108.605 Y73.461 E13.88578
G1 X108.294 Y73.143 E13.90797
G1 X108.064 Y72.798 E13.92865
G1 X107.914 Y72.45 E13.94756
G1 F1357.5 X107.777 Y72.032 E13.97181
G1 F1149.4 X107.728 Y71.912 E13.98025
G1 F1081.1 X107.733 Y71.564 E14.00434
G1 F1088.9 X107.774 Y71.314 E14.02175
G1 X107.847 Y70.976 E14.04552
G1 F1090.9 X108.09 Y70.516 E14.0812
G1 X108.37 Y70.167 E14.1119
G1 X108.702 Y69.876 E14.14218
G1 X109.159 Y69.641 E14.17743
G1 X109.527 Y69.53 E14.2038
G1 F1092.9 X109.986 Y69.476 E14.23545
G1 F1096.9 X110.414 Y69.516 E14.26478
G1 X110.833 Y69.637 E14.29453
G1 X111.238 Y69.845 E14.32559
G1 F1100.9 X111.708 Y70.23 E14.36689
G1 F1098.9 X111.989 Y70.651 E14.40136
G1 F1094.9 X112.223 Y71.191 E14.44159
G1 F1092.9 X112.283 Y71.86 E14.48758
G1 F1263.2 X112.085 Y72.45 E14.52445
G1 F1500 X111.937 Y72.797 E14.54327
G1 X111.683 Y73.171 E14.56583
G1 X111.324 Y73.533 E14.59126
G1 X110.846 Y73.789 E14.61831
G1 X110.414 Y73.914 E14.64075
G1 X109.889 Y73.968 E14.66708
G1 F1500 E8.16708
G0 F7500 X109.87 Y74.066
G0 X109.311 Y74.057
G0 X109.311 Y78.354
G0 X91.92 Y145.354
G1 F1500 E14.66708
G1 X91.643 Y145.237 E14.68208
G1 X91.522 Y145.117 E14.69058
G1 X91.4 Y144.827 E14.70628
G1 X91.4 Y78.754 E18.00268
G1 X91.432 Y78.557 E18.01263
G1 X91.522 Y78.391 E18.02205
G1 X91.643 Y78.271 E18.03056
G1 X91.924 Y78.154 E18.04574
G1 X128.085 Y78.154 E19.84982
G1 X128.341 Y78.259 E19.86363
G1 X128.495 Y78.413 E19.87449
G1 X128.6 Y78.659 E19.88784
G1 X128.6 Y144.831 E23.18917
G1 X128.552 Y144.993 E23.1976
G1 X128.425 Y145.179 E23.20884
G1 X128.239 Y145.305 E23.22004
G1 X128.078 Y145.354 E23.22844
G1 X91.92 Y145.354 E25.03237
G1 F1500 E18.53237
G0 F7500 X91.535 Y145.382
G0 X87.8 Y145.382
G0 X87.6 Y151.154
G1 F1500 E25.03237
G1 X134.4 Y151.154 E27.36723
G1 X134.4 Y72.354 E31.29858
G1 X113.463 Y72.354 E32.34313
G1 X113.221 Y72.286 E32.35567
G1 X113.107 Y72.208 E32.36256
G1 F1373 X112.831 Y71.876 E32.38609
G1 F1167.3 X112.807 Y71.455 E32.41313
G1 F1090.9 X112.772 Y71.206 E32.43038
G1 F1094.9 X112.672 Y70.816 E32.4579
G1 F1092.9 X112.445 Y70.325 E32.49494
G1 F1094.9 X112.182 Y69.957 E32.52585
G1 F1098.9 X111.996 Y69.755 E32.54455
G1 F1092.9 X111.785 Y69.569 E32.56381
G1 F1090.9 X111.522 Y69.376 E32.58619
G1 F1096.9 X111.125 Y69.165 E32.61686
G1 F1090.9 X110.83 Y69.056 E32.63844
G1 X110.535 Y68.982 E32.6593
G1 X110.284 Y68.946 E32.6767
G1 F1088.9 X109.987 Y68.93 E32.69714
G1 X109.716 Y68.946 E32.71579
G1 X109.453 Y68.984 E32.73405
G1 X109.157 Y69.061 E32.75507
G1 F1087 X108.771 Y69.202 E32.78337
G1 F1092.9 X108.311 Y69.485 E32.82035
G1 X107.996 Y69.764 E32.84916
G1 F1088.9 X107.821 Y69.96 E32.86722
G1 X107.585 Y70.274 E32.89421
G1 F1092.9 X107.332 Y70.789 E32.9335
G1 F1088.9 X107.231 Y71.206 E32.96299
G1 X107.19 Y71.468 E32.98122
G1 F1167.3 X107.17 Y71.901 E33.009
G1 F1363.6 X106.892 Y72.209 E33.03177
G1 F1500 X106.627 Y72.354 E33.04684
G1 X87.6 Y72.354 E33.99611
G1 X87.6 Y87.927 E34.77305
G1 X87.492 Y88.2 E34.78769
G1 X87.258 Y88.397 E34.80295
G1 X87 Y88.454 E34.81614
G1 X85.6 Y88.454 E34.88598
G1 X85.6 Y103.054 E35.61438
G1 X87 Y103.054 E35.68423
G1 X87.258 Y103.111 E35.69741
G1 X87.492 Y103.308 E35.71267
G1 X87.571 Y103.468 E35.72157
G1 X87.6 Y103.654 E35.73096
G1 X87.6 Y119.927 E36.54283
G1 X87.492 Y120.2 E36.55747
G1 X87.258 Y120.397 E36.57273
G1 X87 Y120.454 E36.58592
G1 X85.6 Y120.454 E36.65576
G1 X85.6 Y135.054 E37.38416
G1 X87 Y135.054 E37.454
G1 X87.258 Y135.111 E37.46719
G1 X87.492 Y135.308 E37.48245
G1 X87.571 Y135.468 E37.49135
G1 X87.6 Y135.654 E37.50074
G1 X87.6 Y151.154 E38.27404
G0 F7500 X87.2 Y151.554
;TYPE:WALL-OUTER
G1 F1500 X134.8 Y151.554 E40.64881
G1 X134.8 Y71.954 E44.62007
G1 X113.472 Y71.953 E45.68413
G1 X113.31 Y71.859 E45.69348
G1 X113.278 Y71.385 E45.71718
G1 X113.236 Y71.113 E45.73091
G1 X113.153 Y70.781 E45.74798
G1 X113.055 Y70.507 E45.7625
G1 X112.903 Y70.185 E45.78026
G1 X112.752 Y69.934 E45.79488
G1 X112.548 Y69.657 E45.81204
G1 X112.338 Y69.428 E45.82754
G1 X112.088 Y69.201 E45.84439
G1 X111.828 Y69.008 E45.86054
G1 X111.559 Y68.845 E45.87624
G1 X111.256 Y68.703 E45.89293
G1 X110.968 Y68.599 E45.90821
G1 X110.639 Y68.518 E45.92511
G1 X110.332 Y68.472 E45.9406
G1 X110 Y68.455 E45.95718
G1 X109.668 Y68.472 E45.97377
G1 X109.36 Y68.518 E45.98931
G1 X109.032 Y68.599 E46.00616
G1 X108.744 Y68.703 E46.02144
G1 X108.441 Y68.845 E46.03813
G1 X108.173 Y69.008 E46.05378
G1 X107.913 Y69.201 E46.06994
G1 X107.662 Y69.428 E46.08682
G1 X107.452 Y69.657 E46.10232
G1 X107.248 Y69.934 E46.11948
G1 X107.097 Y70.185 E46.1341
G1 X106.945 Y70.507 E46.15186
G1 X106.847 Y70.781 E46.16638
G1 X106.764 Y71.113 E46.18345
G1 X106.718 Y71.421 E46.19899
G1 X106.698 Y71.788 E46.21733
G1 X106.659 Y71.876 E46.22213
G1 X106.558 Y71.953 E46.22847
G1 X87.2 Y71.954 E47.19424
G1 X87.198 Y87.889 E47.98924
G1 X87.063 Y88.054 E47.99988
G1 X85.2 Y88.054 E48.09282
G1 X85.2 Y103.454 E48.86113
G1 X87.063 Y103.454 E48.95408
G1 X87.2 Y103.61 E48.96444
G1 X87.198 Y119.889 E49.7766
G1 X87.063 Y120.054 E49.78723
G1 X85.2 Y120.054 E49.88018
G1 X85.2 Y135.454 E50.64849
G1 X87.063 Y135.454 E50.74143
G1 X87.2 Y135.61 E50.75179
G1 X87.2 Y151.554 E51.54724
G0 F7500 X87.4 Y151.554
G1 F1500 E45.04724
G0 F7500 X87.47 Y151.284
G0 X87.8 Y145.254
G0 X91.219 Y144.932
G0 X91.961 Y144.951
G1 F1500 E51.54724
G1 X91.84 Y144.875 E51.55437
G1 X91.802 Y144.789 E51.55906
G1 X91.8 Y78.701 E54.8562
G1 X91.881 Y78.593 E54.86294
G1 X91.965 Y78.556 E54.86752
G1 X128.041 Y78.558 E56.66736
G1 X128.142 Y78.612 E56.67307
G1 X128.196 Y78.713 E56.67879
G1 X128.198 Y144.789 E59.97533
G1 X128.142 Y144.896 E59.98136
G1 X128.035 Y144.952 E59.98738
G1 X91.961 Y144.951 E61.78712
G0 F7500 X91.84 Y144.875
G0 X91.817 Y144.822
G1 F1500 E55.28712
G0 F7500 X91.5 Y144.822
G0 X109.832 Y78.354
G0 X109.876 Y74.169
G0 X109.929 Y73.564
G1 F1500 E61.78712
G1 X109.47 Y73.474 E61.81046
G1 X109.146 Y73.338 E61.82799
G1 X108.85 Y73.139 E61.84578
G1 X108.608 Y72.895 E61.86293
G1 X108.414 Y72.605 E61.88033
G1 X108.271 Y72.256 E61.89915
G1 X108.208 Y71.91 E61.9167
G1 X108.211 Y71.56 E61.93416
G1 X108.296 Y71.143 E61.95539
G1 X108.501 Y70.756 E61.97724
G1 X108.725 Y70.483 E61.99486
G1 X109.008 Y70.251 E62.01311
G1 X109.302 Y70.095 E62.02972
G1 X109.651 Y69.989 E62.04792
G1 X109.996 Y69.953 E62.06522
G1 X110.343 Y69.986 E62.08261
G1 X110.69 Y70.092 E62.10071
G1 X110.998 Y70.255 E62.1181
G1 X111.339 Y70.532 E62.14002
G1 X111.582 Y70.896 E62.16185
G1 X111.757 Y71.314 E62.18446
G1 X111.81 Y71.818 E62.20974
G1 X111.716 Y72.296 E62.23405
G1 X111.586 Y72.605 E62.25077
G1 X111.392 Y72.896 E62.26822
G1 X111.08 Y73.21 E62.2903
G1 X110.672 Y73.423 E62.31327
G1 X110.345 Y73.52 E62.33028
G1 X109.929 Y73.564 E62.35115
G0 F7500 X109.733 Y73.526
G1 F1500 E55.85115
G0 F7500 X109.636 Y74.02
G0 X107.923 Y72.876
G0 X107.697 Y70.491
G0 X106.716 Y72.485
G0 X87.772 Y72.526
G0 X87.482 Y88.444
G0 X85.772 Y88.626
G0 X85.772 Y102.882
G0 X87.624 Y103.215
G0 X87.482 Y120.444
G0 X85.772 Y120.626
G0 X85.772 Y134.882
G0 X87.439 Y135.182
G0 X87.7 Y150.793
G0 X87.961 Y150.793
;TYPE:SKIN
G1 F1500 E62.35115
G1 X87.958 Y135.627 E63.10779
G1 X87.921 Y135.389 E63.1198
G1 X87.785 Y135.088 E63.13628
G1 X87.429 Y134.791 E63.15941
G1 X87.039 Y134.698 E63.17942
G1 X85.96 Y134.694 E63.23325
G1 X85.96 Y120.814 E63.92572
G1 X87.039 Y120.81 E63.97956
G1 X87.429 Y120.717 E63.99956
G1 X87.79 Y120.415 E64.02304
G1 X87.958 Y119.976 E64.04649
G1 X87.958 Y103.627 E64.86215
G1 X87.921 Y103.389 E64.87416
G1 X87.785 Y103.088 E64.89064
G1 X87.429 Y102.791 E64.91377
G1 X87.039 Y102.698 E64.93377
G1 X85.96 Y102.694 E64.98761
G1 X85.96 Y88.814 E65.68008
G1 X87.039 Y88.81 E65.73391
G1 X87.429 Y88.717 E65.75392
G1 X87.79 Y88.415 E65.7774
G1 X87.958 Y87.976 E65.80085
G1 X87.96 Y72.714 E66.56227
G1 X106.492 Y72.716 E67.48684
G1 X106.789 Y72.671 E67.50182
G1 X107.126 Y72.484 E67.52105
G1 X107.415 Y72.202 E67.5412
G1 X107.532 Y72.43 E67.55398
G1 X107.576 Y72.573 E67.56145
G1 X107.737 Y72.954 E67.58208
G1 X108.011 Y73.366 E67.60677
G1 X108.367 Y73.732 E67.63224
G1 X108.79 Y74.015 E67.65763
G1 X109.246 Y74.205 E67.68228
G1 X109.878 Y74.33 E67.71442
G1 X110.479 Y74.27 E67.74455
G1 X110.957 Y74.133 E67.76936
G1 X111.537 Y73.829 E67.80203
G1 X111.993 Y73.363 E67.83456
G1 X112.262 Y72.954 E67.85898
G1 X112.417 Y72.589 E67.87876
G1 X112.465 Y72.437 E67.88672
G1 X112.588 Y72.181 E67.90089
G1 X112.87 Y72.482 E67.92146
G1 X113.069 Y72.612 E67.93332
G1 X113.429 Y72.712 E67.95196
G1 X134.04 Y72.714 E68.98025
G1 X134.04 Y150.794 E72.87568
G1 X87.961 Y150.793 E75.17457
G1 F1500 E68.67457
G0 F7500 X87.7 Y150.793
G0 X127.968 Y150.953
G0 X128.085 Y145.534
G0 X128.131 Y145.712
G1 F1500 E75.17457
G1 X128.545 Y145.547 E75.1968
G1 X128.796 Y145.299 E75.21441
G1 X128.958 Y144.896 E75.23608
G1 X128.96 Y78.593 E78.54395
G1 X128.793 Y78.205 E78.56502
G1 X128.544 Y77.962 E78.58238
G1 X128.149 Y77.794 E78.60379
G1 X91.873 Y77.796 E80.41361
G1 X91.432 Y77.975 E80.43736
G1 X91.216 Y78.202 E80.45299
G1 X91.089 Y78.437 E80.46632
G1 X91.042 Y78.724 E80.48082
G1 X91.042 Y144.981 E83.7864
G1 X91.219 Y145.312 E83.80513
G1 X91.428 Y145.532 E83.82027
G1 X91.86 Y145.714 E83.84365
G1 X128.131 Y145.712 E85.65322
G1 F1500 E79.15322
G0 F7500 X128.085 Y145.456
G0 X91.895 Y145.535
G0 X91.895 Y150.954
G0 X88.367 Y150.592
G1 F1500 E85.65322
G1 X88.159 Y150.385 E85.66786
G0 F7500 X88.159 Y149.819
G1 F1500 X88.932 Y150.592 E85.7224
G0 F7500 X89.498 Y150.592
G1 F1500 X88.159 Y149.253 E85.81687
G0 F7500 X88.159 Y148.688
G1 F1500 X90.064 Y150.592 E85.95125
G0 F7500 X90.629 Y150.592
G1 F1500 X88.159 Y148.121 E86.12555
G0 F7500 X88.159 Y147.556
G1 F1500 X91.195 Y150.592 E86.33976
G0 F7500 X91.761 Y150.592
G1 F1500 X88.159 Y146.99 E86.5939
G0 F7500 X88.159 Y146.424
G1 F1500 X92.326 Y150.592 E86.88794
G0 F7500 X92.892 Y150.592
G1 F1500 X88.158 Y145.858 E87.22195
G0 F7500 X88.158 Y145.292
G1 F1500 X93.458 Y150.592 E87.59589
G0 F7500 X94.023 Y150.592
G1 F1500 X88.158 Y144.727 E88.0097
G0 F7500 X88.157 Y144.16
G1 F1500 X94.589 Y150.592 E88.46351
G0 F7500 X95.155 Y150.592
G1 F1500 X88.157 Y143.595 E88.95722
G0 F7500 X88.157 Y143.029
G1 F1500 X95.721 Y150.592 E89.49087
G0 F7500 X96.286 Y150.592
G1 F1500 X91.454 Y145.76 E89.83179
G0 F7500 X90.978 Y145.284
G1 F1500 X88.157 Y142.463 E90.03083
G0 F7500 X88.157 Y141.897
G1 F1500 X90.844 Y144.584 E90.22041
G0 F7500 X90.844 Y144.019
G1 F1500 X88.157 Y141.331 E90.41003
G0 F7500 X88.157 Y140.765
G1 F1500 X90.844 Y143.453 E90.59965
G0 F7500 X90.844 Y142.887
G1 F1500 X88.157 Y140.2 E90.78923
G0 F7500 X88.156 Y139.633
G1 F1500 X90.844 Y142.322 E90.97892
G0 F7500 X90.844 Y141.756
G1 F1500 X88.156 Y139.068 E91.16857
G0 F7500 X88.156 Y138.502
G1 F1500 X90.844 Y141.19 E91.35822
G0 F7500 X90.844 Y140.625
G1 F1500 X88.156 Y137.936 E91.54791
G0 F7500 X88.155 Y137.37
G1 F1500 X90.844 Y140.059 E91.73764
G0 F7500 X90.844 Y139.493
G1 F1500 X88.155 Y136.804 E91.92736
G0 F7500 X88.155 Y136.238
G1 F1500 X90.844 Y138.928 E92.11712
G0 F7500 X90.844 Y138.362
G1 F1500 X88.155 Y135.673 E92.30684
G0 F7500 X87.7 Y135.673
G0 X87.455 Y135.271
G0 X86.975 Y134.954
G0 X86.975 Y134.493
G1 F1500 X86.159 Y133.677 E92.36441
G0 F7500 X86.159 Y134.242
G1 F1500 X86.409 Y134.493 E92.38209
G0 F7500 X86.409 Y134.954
G0 X85.772 Y134.882
G0 X85.7 Y133.111
G0 X86.159 Y133.111
G1 F1500 X90.844 Y137.796 E92.71264
G0 F7500 X90.844 Y137.231
G1 F1500 X86.159 Y132.545 E93.04323
G0 F7500 X86.159 Y131.98
G1 F1500 X90.844 Y136.664 E93.37375
G0 F7500 X90.844 Y136.098
G1 F1500 X86.159 Y131.414 E93.70426
G0 F7500 X86.159 Y130.848
G1 F1500 X90.844 Y135.533 E94.03481
G0 F7500 X90.844 Y134.967
G1 F1500 X86.159 Y130.283 E94.36533
G0 F7500 X86.159 Y129.717
G1 F1500 X90.844 Y134.401 E94.69585
G0 F7500 X90.844 Y133.836
G1 F1500 X86.159 Y129.151 E95.0264
G0 F7500 X86.159 Y128.585
G1 F1500 X90.844 Y133.27 E95.35695
G0 F7500 X90.844 Y132.704
G1 F1500 X86.159 Y128.02 E95.68747
G0 F7500 X86.159 Y127.454
G1 F1500 X90.844 Y132.139 E96.01802
G0 F7500 X90.844 Y131.573
G1 F1500 X86.159 Y126.888 E96.34857
G0 F7500 X86.159 Y126.323
G1 F1500 X90.844 Y131.007 E96.67909
G0 F7500 X90.844 Y130.442
G1 F1500 X86.159 Y125.757 E97.00964
G0 F7500 X86.159 Y125.191
G1 F1500 X90.844 Y129.876 E97.34019
G0 F7500 X90.844 Y129.31
G1 F1500 X86.159 Y124.626 E97.67071
G0 F7500 X86.159 Y124.06
G1 F1500 X90.844 Y128.745 E98.00126
G0 F7500 X90.843 Y128.178
G1 F1500 X86.159 Y123.494 E98.33174
G0 F7500 X86.159 Y122.929
G1 F1500 X90.843 Y127.612 E98.66219
G0 F7500 X90.843 Y127.047
G1 F1500 X86.159 Y122.363 E98.99267
G0 F7500 X86.159 Y121.797
G1 F1500 X90.843 Y126.481 E99.32315
G0 F7500 X90.843 Y125.915
G1 F1500 X86.159 Y121.232 E99.6536
G0 F7500 X86.506 Y121.013
G1 F1500 X90.843 Y125.35 E99.9596
G0 F7500 X90.843 Y124.784
