;FLAVOR:Marlin
;TIME:1245
;Filament used: 0.592985m
;Layer height: 0.15
;MINX:88.1
;MINY:73
;MINZ:0.3
;MAXX:131.9
;MAXY:147
;MAXZ:1.5
;TARGET_MACHINE.NAME:Anet A8
;Generated with Cura_SteamEngine 5.6.0
M140 S60
M105
M190 S60
M104 S200
M105
M109 S200
M82 ;absolute extrusion mode
G28 X Y
G1 Z15.0 F2000 ;Move the platform
M106 S120
G92 E0
G92 E0
G1 F1500 E-6.5
;LAYER_COUNT:9
;LAYER:0
M107
M204 S1000
G0 F7500 X88.855 Y74.417 Z0.3
;TYPE:SKIRT
G1 F1500 E0
G1 X89.235 Y73.995 E0.02833
G1 X89.678 Y73.638 E0.05672
G1 X90.171 Y73.355 E0.08508
G1 X90.642 Y73.171 E0.1103
G1 X91.249 Y73.039 E0.1413
G1 X91.608 Y73.01 E0.15926
G1 X91.94 Y73.001 E0.17583
G1 X127.645 Y73 E1.95716
G1 X128.343 Y73.01 E1.99199
G1 X128.94 Y73.07 E2.02192
G1 X129.49 Y73.216 E2.05031
G1 X129.954 Y73.418 E2.07556
G1 X130.435 Y73.72 E2.1039
G1 X130.908 Y74.139 E2.13542
G1 X131.263 Y74.581 E2.16371
G1 X131.546 Y75.075 E2.19211
G1 X131.747 Y75.606 E2.22044
G1 X131.862 Y76.153 E2.24832
G1 X131.89 Y76.509 E2.26614
G1 X131.899 Y76.84 E2.28266
G1 X131.9 Y142.709 E5.56888
G1 X131.891 Y143.436 E5.60515
G1 X131.833 Y144.033 E5.63507
G1 X131.687 Y144.583 E5.66346
G1 X131.457 Y145.102 E5.69178
G1 X131.148 Y145.58 E5.72018
G1 X130.767 Y146.003 E5.74858
G1 X130.326 Y146.36 E5.77689
G1 X129.832 Y146.644 E5.80532
G1 X129.301 Y146.845 E5.83364
G1 X128.755 Y146.961 E5.86149
G1 X128.392 Y146.99 E5.87966
G1 X128.06 Y146.999 E5.89623
G1 X92.361 Y147 E7.67726
G1 X91.663 Y146.991 E7.71209
G1 X91.065 Y146.932 E7.74207
G1 X90.515 Y146.786 E7.77046
G1 X89.995 Y146.555 E7.79884
G1 X89.519 Y146.247 E7.82713
G1 X89.096 Y145.866 E7.85553
G1 X88.739 Y145.423 E7.88392
G1 X88.456 Y144.931 E7.91223
G1 X88.254 Y144.399 E7.94062
G1 X88.139 Y143.853 E7.96846
G1 X88.11 Y143.488 E7.98673
G1 X88.101 Y143.144 E8.0039
G1 X88.1 Y77.226 E11.29256
G1 X88.109 Y76.561 E11.32574
G1 X88.169 Y75.962 E11.35577
G1 X88.315 Y75.414 E11.38407
G1 X88.545 Y74.895 E11.41239
G1 X88.855 Y74.417 E11.44081
G0 F7500 X89.154 Y74.682
G1 F1500 X89.489 Y74.304 E11.46601
G1 X89.88 Y73.983 E11.49125
G1 X90.317 Y73.728 E11.51649
G1 X90.788 Y73.544 E11.54172
G1 X91.282 Y73.438 E11.56693
G1 X91.619 Y73.41 E11.5838
G1 X91.94 Y73.401 E11.59982
G1 X127.639 Y73.4 E13.38085
G1 X128.337 Y73.41 E13.41568
G1 X128.84 Y73.457 E13.44088
G1 X129.33 Y73.583 E13.46612
G1 X129.794 Y73.785 E13.49137
G1 X130.22 Y74.057 E13.51658
G1 X130.598 Y74.392 E13.54178
G1 X130.918 Y74.783 E13.56699
G1 X131.173 Y75.22 E13.59223
G1 X131.356 Y75.691 E13.61744
G1 X131.463 Y76.185 E13.64266
G1 X131.49 Y76.52 E13.65943
G1 X131.499 Y76.84 E13.6754
G1 X131.5 Y142.704 E16.96137
G1 X131.491 Y143.431 E16.99764
G1 X131.445 Y143.934 E17.02284
G1 X131.32 Y144.424 E17.04807
G1 X131.119 Y144.888 E17.0733
G1 X130.848 Y145.315 E17.09853
G1 X130.513 Y145.694 E17.12376
G1 X130.123 Y146.015 E17.14896
G1 X129.687 Y146.271 E17.17419
G1 X129.216 Y146.454 E17.1994
G1 X128.722 Y146.562 E17.22463
G1 X128.381 Y146.59 E17.2417
G1 X128.06 Y146.599 E17.25772
G1 X92.366 Y146.6 E19.0385
G1 X91.668 Y146.591 E19.07332
G1 X91.164 Y146.544 E19.09858
G1 X90.674 Y146.419 E19.12381
G1 X90.21 Y146.218 E19.14903
G1 X89.784 Y145.947 E19.17422
G1 X89.405 Y145.612 E19.19946
G1 X89.084 Y145.221 E19.2247
G1 X88.829 Y144.785 E19.2499
G1 X88.645 Y144.314 E19.27512
G1 X88.538 Y143.82 E19.30034
G1 X88.51 Y143.477 E19.31751
G1 X88.501 Y143.144 E19.33413
G1 X88.5 Y77.231 E22.62254
G1 X88.509 Y76.566 E22.65572
G1 X88.556 Y76.062 E22.68098
G1 X88.682 Y75.573 E22.70617
G1 X88.883 Y75.109 E22.7314
G1 X89.154 Y74.682 E22.75663
G1 F1500 E16.25663
;MESH:Anet-a8-psu-cover_hex-grid-front+back.stl
G0 F7500 X93.586 Y75.935
G0 X95.674 Y78.809
;TYPE:WALL-INNER
G1 F1500 E22.75663
G1 F3931.5 X94.41 Y80.997 E22.88553
G1 F1500 E16.38553
G0 F7500 X94.025 Y82
G0 X96.877 Y87.6
G0 X94.025 Y93.2
G0 X97.163 Y98.634
G0 X103.438 Y98.966
G0 X106.576 Y104.4
G0 X103.724 Y110
G0 X106.576 Y115.6
G0 X103.724 Y121.2
G0 X106.862 Y126.634
G0 X113.138 Y126.966
G0 X116.276 Y132.4
G0 X113.129 Y137.837
G0 X112.507 Y139.259
G0 X113.116 Y140.735
G0 X114.589 Y142
G1 F1500 E22.88553
G1 F4020 X105.497 Y142 E23.33913
G1 X105.125 Y141.872 E23.35876
G1 X104.977 Y141.701 E23.37004
G1 F3950.9 X104.927 Y141.191 E23.39606
G1 X104.631 Y141.701 E23.42599
G1 F4020 X104.482 Y141.872 E23.43731
G1 X104.196 Y142 E23.45294
G1 X96.491 Y142 E23.83734
G1 X96.119 Y141.872 E23.85697
G1 X95.971 Y141.701 E23.86825
G1 X95.624 Y141.1 E23.90288
G1 X95.625 Y141.701 E23.93286
G1 X95.476 Y141.872 E23.94418
G1 X95.19 Y142 E23.95981
G1 X93.7 Y142 E24.03414
G1 X93.275 Y141.825 E24.05707
G1 X93.1 Y141.489 E24.07598
G1 X93.1 Y139.457 E24.17735
G1 X93.213 Y139.105 E24.1958
G1 X93.469 Y138.896 E24.21228
G1 X93.793 Y138.811 E24.229
G1 F4030.1 X94.464 Y139.092 E24.2652
G1 X94.006 Y138.301 E24.31068
G1 F4020 X93.929 Y138.07 E24.32283
G1 X93.929 Y137.93 E24.32982
G1 X94.004 Y137.701 E24.34184
G1 F4000 X94.409 Y136.998 E24.38252
G1 X93.79 Y137.19 E24.41501
G1 F4020 X93.469 Y137.105 E24.43158
G1 X93.213 Y136.896 E24.44807
G1 X93.1 Y136.629 E24.46253
G1 X93.1 Y128.256 E24.88026
G1 X93.213 Y127.904 E24.89871
G1 X93.469 Y127.695 E24.91519
G1 X93.793 Y127.61 E24.93191
G1 F4030.1 X94.464 Y127.891 E24.96811
G1 X94.006 Y127.1 E25.0136
G1 F4020 X93.929 Y126.87 E25.0257
G1 X93.929 Y126.73 E25.03268
G1 X94.004 Y126.501 E25.0447
G1 F4000 X94.409 Y125.798 E25.08538
G1 X93.79 Y125.99 E25.11788
G1 F4020 X93.469 Y125.905 E25.13444
G1 X93.213 Y125.696 E25.15093
G1 X93.1 Y125.429 E25.1654
G1 X93.1 Y117.056 E25.58313
G1 X93.213 Y116.704 E25.60157
G1 X93.469 Y116.495 E25.61806
G1 X93.793 Y116.41 E25.63477
G1 F4030.1 X94.464 Y116.691 E25.67097
G1 X94.006 Y115.9 E25.71646
G1 F4020 X93.929 Y115.67 E25.72856
G1 X93.929 Y115.53 E25.73555
G1 X94.004 Y115.301 E25.74757
G1 F4000 X94.409 Y114.598 E25.78825
G1 X93.79 Y114.79 E25.82074
G1 F4020 X93.469 Y114.705 E25.83731
G1 X93.213 Y114.496 E25.8538
G1 X93.1 Y114.229 E25.86826
G1 X93.1 Y105.856 E26.28599
G1 X93.213 Y105.504 E26.30444
G1 X93.469 Y105.295 E26.32092
G1 X93.793 Y105.21 E26.33763
G1 F4030.1 X94.464 Y105.491 E26.37384
G1 X94.006 Y104.7 E26.41932
G1 F4020 X93.929 Y104.47 E26.43142
G1 X93.929 Y104.33 E26.43841
G1 X94.004 Y104.101 E26.45043
G1 F4000 X94.409 Y103.398 E26.49111
G1 X93.79 Y103.59 E26.52361
G1 F4020 X93.469 Y103.505 E26.54017
G1 X93.213 Y103.296 E26.55666
G1 X93.1 Y103.029 E26.57112
G1 X93.1 Y94.656 E26.98886
G1 X93.213 Y94.304 E27.0073
G1 X93.469 Y94.095 E27.02379
G1 X93.793 Y94.01 E27.0405
G1 F4030.1 X94.464 Y94.291 E27.0767
G1 X94.006 Y93.5 E27.12219
G1 F4020 X93.929 Y93.27 E27.13429
G1 X93.929 Y93.13 E27.14127
G1 X94.004 Y92.901 E27.1533
G1 F4000 X94.409 Y92.198 E27.19397
G1 X93.79 Y92.39 E27.22647
G1 F4020 X93.469 Y92.305 E27.24304
G1 X93.213 Y92.096 E27.25952
G1 X93.1 Y91.829 E27.27399
G1 X93.1 Y83.456 E27.69172
G1 X93.213 Y83.104 E27.71016
G1 X93.469 Y82.895 E27.72665
G1 X93.793 Y82.81 E27.74336
G1 F4030.1 X94.464 Y83.091 E27.77956
G1 X94.006 Y82.3 E27.82505
G1 F4020 X93.929 Y82.07 E27.83715
G1 X93.929 Y81.93 E27.84414
G1 X94.004 Y81.701 E27.85616
G1 F4000 X94.41 Y80.997 E27.89691
G1 X93.79 Y81.189 E27.92945
G1 F4020 X93.469 Y81.104 E27.94602
G1 X93.213 Y80.895 E27.9625
G1 X93.1 Y80.628 E27.97697
G1 X93.1 Y78.6 E28.07815
G1 X93.275 Y78.175 E28.10108
G1 X93.611 Y78 E28.11998
G1 X95.104 Y78 E28.19446
G1 X95.476 Y78.128 E28.21409
G1 X95.625 Y78.299 E28.22541
G1 F3950.9 X95.674 Y78.809 E28.25141
G1 X95.971 Y78.299 E28.28137
G1 F4020 X96.119 Y78.128 E28.29266
G1 X96.405 Y78 E28.30829
G1 X104.11 Y78 E28.69269
G1 X104.482 Y78.128 E28.71232
G1 X104.631 Y78.299 E28.72364
G1 X104.977 Y78.9 E28.75823
G1 X104.977 Y78.299 E28.78822
G1 X105.125 Y78.128 E28.7995
G1 X105.411 Y78 E28.81513
G1 X114.503 Y78 E29.26873
G1 X114.875 Y78.128 E29.28836
G1 X115.024 Y78.299 E29.29968
G1 F3950.9 X115.073 Y78.809 E29.32569
G1 X115.37 Y78.299 E29.35564
G1 F4020 X115.518 Y78.128 E29.36693
G1 X115.804 Y78 E29.38256
G1 X123.509 Y78 E29.76696
G1 X123.881 Y78.128 E29.78659
G1 X124.03 Y78.299 E29.79791
G1 X124.376 Y78.9 E29.8325
G1 X124.376 Y78.299 E29.86249
G1 X124.524 Y78.128 E29.87377
G1 X124.81 Y78 E29.8894
G1 X126.3 Y78 E29.96374
G1 X126.724 Y78.176 E29.98664
G1 X126.9 Y78.6 E30.00955
G1 X126.9 Y80.628 E30.11072
G1 X126.787 Y80.895 E30.12519
G1 X126.531 Y81.104 E30.14168
G1 X126.21 Y81.189 E30.15824
G1 F3960.6 X125.59 Y80.997 E30.19111
G1 X125.996 Y81.701 E30.23226
G1 F4020 X126.07 Y81.93 E30.24427
G1 F4030.1 X126.047 Y82.211 E30.2583
G1 F4040.2 X125.536 Y83.091 E30.30882
G1 F4030.1 X126.208 Y82.81 E30.34506
G1 F4020 X126.531 Y82.895 E30.36173
G1 X126.787 Y83.104 E30.37821
G1 X126.9 Y83.456 E30.39666
G1 X126.9 Y91.829 E30.81439
G1 X126.787 Y92.096 E30.82885
G1 X126.531 Y92.305 E30.84534
G1 X126.21 Y92.39 E30.86191
G1 F3970.4 X125.591 Y92.198 E30.89465
G1 X125.996 Y92.901 E30.93563
G1 F4020 X126.07 Y93.131 E30.94768
G1 F4030.1 X126.047 Y93.411 E30.96166
G1 F4040.2 X125.536 Y94.291 E31.01218
G1 F4030.1 X126.208 Y94.01 E31.04843
G1 F4020 X126.531 Y94.095 E31.06509
G1 X126.787 Y94.304 E31.08158
G1 X126.9 Y94.656 E31.10002
G1 X126.9 Y103.029 E31.51775
G1 X126.787 Y103.296 E31.53222
G1 X126.531 Y103.505 E31.54871
G1 X126.21 Y103.59 E31.56527
G1 F3970.4 X125.591 Y103.398 E31.59801
G1 X125.996 Y104.101 E31.63899
G1 F4020 X126.07 Y104.331 E31.65105
G1 F4030.1 X126.047 Y104.611 E31.66503
G1 F4040.2 X125.536 Y105.491 E31.71554
G1 F4030.1 X126.208 Y105.21 E31.75179
G1 F4020 X126.531 Y105.295 E31.76845
G1 X126.787 Y105.504 E31.78494
G1 X126.9 Y105.856 E31.80339
G1 X126.9 Y114.229 E32.22112
G1 X126.787 Y114.496 E32.23558
G1 X126.531 Y114.705 E32.25207
G1 X126.21 Y114.79 E32.26864
G1 F3970.4 X125.591 Y114.598 E32.30137
G1 X125.996 Y115.301 E32.34236
G1 F4020 X126.07 Y115.531 E32.35441
G1 F4030.1 X126.047 Y115.811 E32.36839
G1 F4040.2 X125.536 Y116.691 E32.41891
G1 F4030.1 X126.208 Y116.41 E32.45515
G1 F4020 X126.531 Y116.495 E32.47182
G1 X126.787 Y116.704 E32.4883
G1 X126.9 Y117.056 E32.50675
G1 X126.9 Y125.429 E32.92448
G1 X126.787 Y125.696 E32.93894
G1 X126.531 Y125.905 E32.95543
G1 X126.21 Y125.99 E32.972
G1 F3970.4 X125.591 Y125.798 E33.00474
G1 X125.996 Y126.501 E33.04572
G1 F4020 X126.07 Y126.731 E33.05777
G1 F4030.1 X126.047 Y127.011 E33.07175
G1 F4040.2 X125.536 Y127.891 E33.12227
G1 F4030.1 X126.208 Y127.61 E33.15852
G1 F4020 X126.531 Y127.695 E33.17518
G1 X126.787 Y127.904 E33.19167
G1 X126.9 Y128.256 E33.21011
G1 X126.9 Y136.629 E33.62784
G1 X126.787 Y136.896 E33.64231
G1 X126.531 Y137.105 E33.6588
G1 X126.21 Y137.19 E33.67536
G1 F3970.4 X125.591 Y136.998 E33.7081
G1 X125.996 Y137.701 E33.74908
G1 F4020 X126.07 Y137.931 E33.76114
G1 F4030.1 X126.047 Y138.211 E33.77512
G1 F4040.2 X125.536 Y139.092 E33.82568
G1 F4030.1 X126.208 Y138.811 E33.86192
G1 F4020 X126.531 Y138.896 E33.87859
G1 X126.787 Y139.105 E33.89507
G1 X126.9 Y139.457 E33.91352
G1 X126.9 Y141.489 E34.0149
G1 X126.724 Y141.824 E34.03377
G1 X126.389 Y142 E34.05265
G1 X124.896 Y142 E34.12714
G1 X124.524 Y141.872 E34.14677
G1 X124.376 Y141.701 E34.15805
G1 F3950.9 X124.326 Y141.191 E34.18406
G1 X124.03 Y141.701 E34.214
G1 F4020 X123.881 Y141.872 E34.22531
G1 X123.595 Y142 E34.24095
G1 X115.89 Y142 E34.62535
G1 X115.518 Y141.872 E34.64498
G1 X115.37 Y141.701 E34.65626
G1 X115.023 Y141.1 E34.69088
G1 X115.024 Y141.701 E34.72087
G1 X114.875 Y141.872 E34.73218
G1 X114.589 Y142 E34.74781
G0 F7500 X115.023 Y141.1
G1 F4030.1 X113.406 Y138.3 E34.90872
G1 F3268.3 X113.232 Y138 E34.93001
G1 F2748.7 X106.768 Y138 E35.40165
G1 F3274.9 X106.594 Y137.7 E35.42289
G1 F4040.2 X103.706 Y132.7 E35.70952
G1 F3268.3 X103.532 Y132.4 E35.7308
G1 F2748.7 X97.069 Y132.4 E36.20237
G1 F3274.9 X96.895 Y132.1 E36.22361
G1 F4040.2 X94.464 Y127.891 E36.46489
G0 F7500 X94.025 Y126.8
G0 X94.409 Y125.798
G1 F4010 X96.896 Y121.5 E36.71325
G1 F3274.9 X97.069 Y121.2 E36.73446
G0 F7500 X94.464 Y116.691
G1 F4040.2 X96.895 Y120.9 E36.97574
G1 F3274.9 X97.069 Y121.2 E36.99698
G1 F2748.7 X103.532 Y121.2 E37.46855
G1 F3268.3 X103.706 Y121.5 E37.48983
G1 F4040.2 X106.594 Y126.5 E37.77646
G1 F3274.9 X106.768 Y126.8 E37.7977
G1 F2748.7 X113.232 Y126.8 E38.26934
G1 F3268.3 X113.406 Y127.1 E38.29063
G1 F4040.2 X116.294 Y132.1 E38.57726
G1 F3274.9 X116.468 Y132.4 E38.5985
G1 F2748.7 X122.931 Y132.4 E39.07007
G1 F3268.3 X123.105 Y132.7 E39.09135
G1 F3980.2 X125.591 Y136.998 E39.34154
G0 F7500 X125.975 Y138
G0 X125.536 Y139.092
G1 F3960.6 X124.326 Y141.191 E39.46423
G1 F1500 E32.96423
G0 F7500 X124.169 Y141.82
G0 X124.797 Y141.817
G0 X126.852 Y141.952
G0 X126.85 Y142.619
G0 X127.7 Y142.8
G1 F1500 E39.46423
G1 F4020 X127.7 Y77.2 E42.73702
G1 X92.302 Y77.202 E44.50304
G1 X92.302 Y142.798 E47.77563
G1 X127.7 Y142.8 E49.54165
G1 F1500 E43.04165
G0 F7500 X127.5 Y132.4
G0 X125.635 Y132.4
G0 X125.17 Y131.053
G0 X122.931 Y132.4
G1 F1500 E49.54165
G1 F3261.7 X123.104 Y132.1 E49.56294
G1 F4030.1 X125.536 Y127.891 E49.80486
G0 F7500 X125.975 Y126.8
G0 X125.591 Y125.798
G1 F3980.2 X123.105 Y121.5 E50.05505
G1 F3268.3 X122.931 Y121.2 E50.07633
G1 F2748.7 X116.468 Y121.2 E50.5479
G1 F3274.9 X116.294 Y120.9 E50.56914
G1 F4040.2 X113.406 Y115.9 E50.85577
G1 F3268.3 X113.232 Y115.6 E50.87705
G1 F2748.7 X106.768 Y115.6 E51.34869
G1 F3274.9 X106.594 Y115.3 E51.36993
G1 F4040.2 X103.706 Y110.3 E51.65656
G1 F3268.3 X103.532 Y110 E51.67785
G1 F2748.7 X97.069 Y110 E52.14941
G1 F3274.9 X96.895 Y109.7 E52.17065
G1 F4040.2 X94.464 Y105.491 E52.41194
G0 F7500 X94.025 Y104.4
G0 X94.409 Y103.398
G1 F4010 X96.896 Y99.1 E52.6603
G1 F3274.9 X97.069 Y98.8 E52.6815
G0 F7500 X94.464 Y94.291
G1 F4040.2 X96.895 Y98.5 E52.92279
G1 F3274.9 X97.069 Y98.8 E52.94403
G1 F2748.7 X103.532 Y98.8 E53.41559
G1 F3268.3 X103.706 Y99.1 E53.43688
G1 F4040.2 X106.594 Y104.1 E53.72351
G1 F3274.9 X106.768 Y104.4 E53.74475
G1 F2748.7 X113.232 Y104.4 E54.21639
G1 F3268.3 X113.406 Y104.7 E54.23767
G1 F4040.2 X116.294 Y109.7 E54.5243
G1 F3274.9 X116.468 Y110 E54.54554
G1 F2748.7 X122.931 Y110 E55.01711
G1 F3268.3 X123.105 Y110.3 E55.03839
G1 F3980.2 X125.591 Y114.598 E55.28858
G0 F7500 X125.975 Y115.6
G0 X125.536 Y116.691
G1 F4030.1 X123.104 Y120.9 E55.5305
G1 F3261.7 X122.931 Y121.2 E55.55179
G0 F7500 X116.468 Y121.2
G1 F3274.9 X116.295 Y121.5 E55.573
G1 F4030.1 X113.405 Y126.5 E55.8604
G1 F3261.7 X113.232 Y126.8 E55.8817
G0 F7500 X106.768 Y126.8
G1 F3274.9 X106.595 Y127.1 E55.90291
G1 F4030.1 X103.705 Y132.1 E56.19031
G1 F3261.7 X103.532 Y132.4 E56.2116
G0 F7500 X97.069 Y132.4
G1 F3274.9 X96.896 Y132.7 E56.23281
G1 F4010 X94.409 Y136.998 E56.48117
G0 F7500 X94.025 Y138
G0 X94.464 Y139.092
G1 F4030.1 X95.624 Y141.1 E56.59657
G0 F7500 X96.239 Y141.834
G0 X104.362 Y141.834
G0 X104.927 Y141.191
G1 F3960.6 X106.595 Y138.3 E56.76559
G1 F3274.9 X106.768 Y138 E56.7868
G0 F7500 X113.232 Y138
G1 F3261.7 X113.405 Y137.7 E56.80809
G1 F4030.1 X116.295 Y132.7 E57.09549
G1 F3274.9 X116.468 Y132.4 E57.1167
G0 F7500 X113.424 Y126.8
G0 X116.276 Y121.2
G0 X113.232 Y115.6
G1 F3261.7 X113.405 Y115.3 E57.13799
G1 F4030.1 X116.295 Y110.3 E57.4254
G1 F3274.9 X116.468 Y110 E57.4466
G0 F7500 X122.931 Y110
G1 F3261.7 X123.104 Y109.7 E57.4679
G1 F4030.1 X125.536 Y105.491 E57.70981
G0 F7500 X125.975 Y104.4
G0 X125.591 Y103.398
G1 F3980.2 X123.105 Y99.1 E57.96
G1 F3268.3 X122.931 Y98.8 E57.98129
G1 F2748.7 X116.468 Y98.8 E58.45286
G1 F3274.9 X116.294 Y98.5 E58.47409
G1 F4040.2 X113.406 Y93.5 E58.76073
G1 F3268.3 X113.232 Y93.2 E58.78201
G1 F2748.7 X106.768 Y93.2 E59.25365
G1 F3274.9 X106.594 Y92.9 E59.27489
G1 F4040.2 X103.706 Y87.9 E59.56152
G1 F3268.3 X103.532 Y87.6 E59.5828
G1 F2748.7 X97.069 Y87.6 E60.05437
G1 F3274.9 X96.895 Y87.3 E60.07561
G1 F4040.2 X94.464 Y83.091 E60.31689
G0 F7500 X97.069 Y87.6
G1 F3274.9 X96.896 Y87.9 E60.3381
G1 F4010 X94.409 Y92.198 E60.58646
G0 F7500 X97.163 Y87.766
G0 X103.532 Y87.6
G1 F3261.7 X103.705 Y87.3 E60.60775
G1 F4030.1 X106.595 Y82.3 E60.89516
G1 F3274.9 X106.768 Y82 E60.91636
G0 F7500 X104.977 Y78.9
G1 F4030.1 X106.594 Y81.7 E61.07727
G1 F3274.9 X106.768 Y82 E61.09851
G1 F2748.7 X113.232 Y82 E61.57016
G1 F2851.1 X113.692 Y81.203 E61.63489
G1 F3086.4 X114.152 Y80.405 E61.69474
G1 F3364 X114.613 Y79.607 E61.74969
G1 F3696.6 X115.073 Y78.809 E61.79966
G0 F7500 X113.232 Y82
