;FLAVOR:Marlin
;TIME:5395
;Filament used: 3.12094m
;Layer height: 0.15
;MINX:49.8
;MINY:66.8
;MINZ:0.3
;MAXX:170.2
;MAXY:153.2
;MAXZ:1.95
;TARGET_MACHINE.NAME:Anet A8
;Generated with Cura_SteamEngine 5.6.0
M140 S60
M105
M190 S60
M104 S200
M105
M109 S200
M82 ;absolute extrusion mode
G28 X Y
G1 Z15.0 F2000 ;Move the platform
M106 S120
G92 E0
G92 E0
G1 F1500 E-6.5
;LAYER_COUNT:12
;LAYER:0
M107
M204 S1000
G0 F7500 X51.185 Y67.38 Z0.3
;TYPE:SKIRT
G1 F1500 E0
G1 X51.622 Y67.126 E0.02522
G1 X52.093 Y66.943 E0.05043
G1 X52.588 Y66.837 E0.07568
G1 X52.92 Y66.81 E0.0923
G1 X53.24 Y66.801 E0.10827
G1 X166.339 Y66.8 E5.7508
G1 X167.037 Y66.81 E5.78563
G1 X167.54 Y66.857 E5.81083
G1 X168.03 Y66.983 E5.83608
G1 X168.494 Y67.185 E5.86132
G1 X168.92 Y67.457 E5.88654
G1 X169.298 Y67.792 E5.91174
G1 X169.618 Y68.183 E5.93695
G1 X169.873 Y68.62 E5.96219
G1 X170.056 Y69.091 E5.9874
G1 X170.163 Y69.585 E6.01262
G1 X170.19 Y69.92 E6.02938
G1 X170.199 Y70.24 E6.04535
G1 X170.2 Y85.218 E6.79261
G1 X170.19 Y85.943 E6.82878
G1 X170.117 Y87.048 E6.88403
G1 X169.96 Y89.822 E7.02265
G1 X169.883 Y92.571 E7.15985
G1 X169.883 Y95.282 E7.2951
G1 X169.962 Y98.046 E7.43306
G1 X170.119 Y100.817 E7.57152
G1 X170.189 Y101.803 E7.62084
G1 X170.199 Y102.132 E7.63726
G1 X170.2 Y117.018 E8.37993
G1 X170.182 Y117.92 E8.42494
G1 X170.099 Y119.092 E8.48355
G1 X169.945 Y121.82 E8.61987
G1 X169.867 Y124.573 E8.75727
G1 X169.867 Y127.283 E8.89248
G1 X169.945 Y130.043 E9.03023
G1 X170.101 Y132.792 E9.1676
G1 X170.189 Y134.003 E9.22817
G1 X170.199 Y134.332 E9.24459
G1 X170.2 Y149.308 E9.99175
G1 X170.19 Y150.035 E10.02802
G1 X170.143 Y150.538 E10.05323
G1 X170.017 Y151.028 E10.07847
G1 X169.816 Y151.492 E10.1037
G1 X169.544 Y151.918 E10.12891
G1 X169.209 Y152.297 E10.15415
G1 X168.818 Y152.617 E10.17936
G1 X168.382 Y152.872 E10.20456
G1 X167.911 Y153.056 E10.22978
G1 X167.416 Y153.162 E10.25504
G1 X167.08 Y153.19 E10.27186
G1 X166.76 Y153.199 E10.28783
G1 X160.661 Y153.2 E10.59211
G1 X159.959 Y153.19 E10.62714
G1 X159.456 Y153.143 E10.65234
G1 X158.966 Y153.017 E10.67758
G1 X158.647 Y152.888 E10.69475
G1 X157.52 Y152.36 E10.75684
G1 X155.022 Y151.232 E10.89358
G1 X152.492 Y150.174 E11.0304
G1 X149.931 Y149.187 E11.16733
G1 X147.362 Y148.279 E11.30327
G1 X144.768 Y147.445 E11.43921
G1 X142.136 Y146.68 E11.57595
G1 X139.449 Y145.98 E11.71448
G1 X136.786 Y145.367 E11.85081
G1 X134.139 Y144.836 E11.9855
G1 X131.426 Y144.371 E12.12283
G1 X128.728 Y143.986 E12.2588
G1 X125.965 Y143.673 E12.39752
G1 X123.288 Y143.445 E12.53156
G1 X120.537 Y143.288 E12.66903
G1 X117.776 Y143.21 E12.80684
G1 X116.395 Y143.2 E12.87574
G1 X103.622 Y143.2 E13.51298
G1 X100.825 Y143.24 E13.65254
G1 X98.108 Y143.355 E13.78821
G1 X95.362 Y143.55 E13.92556
G1 X92.656 Y143.818 E14.06122
G1 X89.933 Y144.166 E14.19818
G1 X87.232 Y144.591 E14.33459
G1 X84.524 Y145.094 E14.472
G1 X81.867 Y145.666 E14.6076
G1 X79.22 Y146.314 E14.74356
G1 X76.58 Y147.041 E14.88017
G1 X73.933 Y147.851 E15.01827
G1 X71.338 Y148.726 E15.1549
G1 X68.802 Y149.662 E15.28976
G1 X66.227 Y150.696 E15.4282
G1 X63.729 Y151.783 E15.56412
G1 X62.645 Y152.294 E15.6239
G1 X61.334 Y152.897 E15.6959
G1 X60.86 Y153.072 E15.72111
G1 X60.364 Y153.169 E15.74632
G1 X60.054 Y153.189 E15.76182
G1 X59.438 Y153.2 E15.79256
G1 X53.666 Y153.2 E16.08052
G1 X52.968 Y153.191 E16.11535
G1 X52.464 Y153.144 E16.1406
G1 X51.974 Y153.019 E16.16583
G1 X51.51 Y152.818 E16.19106
G1 X51.084 Y152.547 E16.21625
G1 X50.705 Y152.212 E16.24148
G1 X50.384 Y151.821 E16.26672
G1 X50.129 Y151.385 E16.29192
G1 X49.945 Y150.914 E16.31715
G1 X49.838 Y150.42 E16.34237
G1 X49.81 Y150.077 E16.35954
G1 X49.801 Y149.744 E16.37616
G1 X49.8 Y134.762 E17.12361
G1 X49.818 Y133.873 E17.16797
G1 X49.901 Y132.707 E17.22629
G1 X50.055 Y129.98 E17.36256
G1 X50.133 Y127.227 E17.49996
G1 X50.133 Y124.509 E17.63556
G1 X50.055 Y121.757 E17.77292
G1 X49.9 Y119.012 E17.91008
G1 X49.818 Y117.931 E17.96417
G1 X49.801 Y117.461 E17.98763
G1 X49.8 Y102.558 E18.73115
G1 X49.811 Y101.837 E18.76712
G1 X49.883 Y100.75 E18.82147
G1 X50.04 Y97.978 E18.95999
G1 X50.117 Y95.229 E19.09719
G1 X50.117 Y92.51 E19.23284
G1 X50.038 Y89.754 E19.3704
G1 X49.881 Y86.983 E19.50886
G1 X49.81 Y85.98 E19.55903
G1 X49.801 Y85.661 E19.57495
G1 X49.8 Y70.626 E20.32505
G1 X49.81 Y69.961 E20.35823
G1 X49.858 Y69.458 E20.38344
G1 X49.984 Y68.968 E20.40868
G1 X50.186 Y68.504 E20.43393
G1 X50.458 Y68.078 E20.45914
G1 X50.794 Y67.701 E20.48434
G1 X51.185 Y67.38 E20.50958
G1 F1500 E14.00958
;MESH:Anet-a8-psu-cover_socket-side.stl
G0 F7500 X123.228 Y96.633
G0 X125.125 Y98.416
;TYPE:WALL-INNER
G1 F1500 E20.50958
G1 X125.497 Y98.475 E20.52837
G1 X125.751 Y98.489 E20.54106
G1 X144.227 Y98.49 E21.46283
G1 X144.503 Y98.475 E21.47662
G1 X144.874 Y98.416 E21.49536
G1 X145.224 Y98.281 E21.51408
G1 X145.454 Y98.165 E21.52693
G1 X145.845 Y97.88 E21.55107
G1 X146.04 Y97.685 E21.56483
G1 X146.325 Y97.293 E21.58901
G1 X146.441 Y97.063 E21.60186
G1 X146.576 Y96.715 E21.62048
G1 X146.635 Y96.343 E21.63927
G1 X146.65 Y96.066 E21.65311
G1 X146.636 Y88.529 E22.02913
G1 X141.452 Y83.354 E22.39458
G1 X128.552 Y83.354 E23.03816
G1 X123.357 Y88.55 E23.40473
G1 X123.351 Y96.082 E23.7805
G1 X123.365 Y96.343 E23.79354
G1 X123.424 Y96.715 E23.81233
G1 X123.558 Y97.063 E23.83094
G1 X123.675 Y97.293 E23.84381
G1 X123.96 Y97.685 E23.86799
G1 X124.155 Y97.88 E23.88175
G1 X124.546 Y98.165 E23.90589
G1 X124.777 Y98.281 E23.91879
G1 X125.125 Y98.416 E23.93741
G1 F1500 E17.43741
G0 F7500 X125.167 Y98.303
G0 X127.123 Y98.309
G0 X127.122 Y95.694
G0 X126.7 Y95.401
G1 F1500 E23.93741
G1 X126.504 Y95.195 E23.95159
G1 X126.425 Y94.977 E23.96316
G1 X126.426 Y90.945 E24.16432
G1 X126.467 Y90.725 E24.17548
G1 X126.577 Y90.547 E24.18592
G1 X126.712 Y90.434 E24.19471
G1 X126.914 Y90.346 E24.2057
G1 X129.066 Y90.346 E24.31306
G1 X129.351 Y90.478 E24.32873
G1 X129.544 Y90.755 E24.34558
G1 X129.574 Y90.939 E24.35488
G1 X129.574 Y94.994 E24.55718
G1 X129.5 Y95.184 E24.56736
G1 X129.384 Y95.333 E24.57678
G1 X129.202 Y95.45 E24.58757
G1 X129.051 Y95.494 E24.59542
G1 X126.907 Y95.495 E24.70238
G1 X126.7 Y95.401 E24.71372
G1 F1500 E18.21372
G0 F7500 X127.125 Y95.594
G0 X129.402 Y95.322
G0 X129.754 Y91.42
G0 X133.259 Y91.167
G0 X133.621 Y91.386
G1 F1500 E24.71372
G1 X133.51 Y91.268 E24.72181
G1 X133.4 Y90.993 E24.73658
G1 X133.4 Y86.899 E24.94083
G1 X133.479 Y86.621 E24.95525
G1 X133.596 Y86.475 E24.96459
G1 X133.923 Y86.32 E24.98264
G1 X136 Y86.32 E25.08626
G1 X136.225 Y86.363 E25.09769
G1 X136.405 Y86.476 E25.10829
G1 X136.522 Y86.623 E25.11767
G1 X136.6 Y86.9 E25.13202
G1 X136.6 Y90.993 E25.33622
G1 X136.49 Y91.268 E25.351
G1 X136.257 Y91.463 E25.36616
G1 X136.079 Y91.52 E25.37548
G1 X133.907 Y91.52 E25.48385
G1 X133.621 Y91.386 E25.4996
G1 F1500 E18.9996
G0 F7500 X133.621 Y91.42
G0 X136.101 Y91.701
G0 X140.245 Y91.704
G0 X140.615 Y95.334
G1 F1500 E25.4996
G1 X140.499 Y95.185 E25.50902
G1 X140.425 Y94.995 E25.5192
G1 X140.426 Y90.939 E25.72155
G1 X140.457 Y90.755 E25.73086
G1 X140.65 Y90.478 E25.7477
G1 X140.921 Y90.346 E25.76274
G1 X143.087 Y90.346 E25.8708
G1 X143.319 Y90.454 E25.88357
G1 X143.531 Y90.722 E25.90062
G1 X143.574 Y90.946 E25.912
G1 X143.574 Y94.974 E26.11296
G1 X143.496 Y95.191 E26.12446
G1 X143.294 Y95.403 E26.13907
G1 X143.09 Y95.494 E26.15022
G1 X141.026 Y95.495 E26.25319
G1 X140.797 Y95.451 E26.26482
G1 X140.615 Y95.334 E26.27562
G0 F7500 X140.971 Y95.095
;TYPE:WALL-OUTER
G1 F1500 X140.83 Y94.942 E26.286
G1 X140.826 Y90.902 E26.48755
G1 X140.963 Y90.746 E26.49791
G1 X143.026 Y90.752 E26.60084
G1 X143.122 Y90.811 E26.60646
G1 X143.174 Y90.946 E26.61367
G1 X143.172 Y94.928 E26.81234
G1 X143.081 Y95.064 E26.8205
G1 X143.009 Y95.092 E26.82436
G1 X140.971 Y95.095 E26.92603
G0 F7500 X140.836 Y94.948
G1 F1500 E20.42603
G0 F7500 X141.126 Y95.594
G0 X140.597 Y95.323
G0 X140.245 Y91.423
G0 X136.781 Y91.013
G0 X133.873 Y91.076
G1 F1500 E26.92603
G1 X133.802 Y90.955 E26.93303
G1 X133.806 Y86.869 E27.13688
G1 X133.865 Y86.771 E27.14259
G1 X133.965 Y86.722 E27.14815
G1 X136.053 Y86.72 E27.25232
G1 X136.194 Y86.87 E27.26259
G1 X136.198 Y90.955 E27.46639
G1 X136.127 Y91.076 E27.47339
G1 X136.035 Y91.118 E27.47843
G1 X133.953 Y91.115 E27.5823
G1 X133.873 Y91.076 E27.58674
G0 F7500 X133.802 Y90.955
G0 X133.802 Y90.895
G1 F1500 E21.08674
G0 F7500 X133.5 Y90.895
G0 X133.363 Y91.373
G0 X129.754 Y91.373
G0 X126.985 Y95.095
G1 F1500 E27.58674
G1 X126.827 Y94.977 E27.59658
G1 X126.826 Y90.892 E27.80038
G1 X126.973 Y90.752 E27.81051
G1 X129.02 Y90.751 E27.91264
G1 X129.1 Y90.79 E27.91708
G1 X129.174 Y90.896 E27.92353
G1 X129.169 Y94.941 E28.12533
G1 X129.111 Y95.041 E28.1311
G1 X129.009 Y95.092 E28.13679
G1 X126.985 Y95.095 E28.23777
G0 F7500 X126.827 Y94.977
G0 X126.827 Y94.974
G1 F1500 E21.73777
G0 F7500 X127.125 Y95.594
G0 X126.603 Y95.553
G0 X126.601 Y98.309
G0 X125.161 Y98.827
G1 F1500 E28.23777
G1 X125.455 Y98.873 E28.25261
G1 X125.741 Y98.889 E28.26691
G1 X144.237 Y98.89 E29.18967
G1 X144.545 Y98.873 E29.20506
G1 X144.839 Y98.827 E29.21991
G1 X145.11 Y98.754 E29.23391
G1 X145.386 Y98.647 E29.24868
G1 X145.654 Y98.512 E29.26365
G1 X145.894 Y98.356 E29.27793
G1 X146.113 Y98.178 E29.29201
G1 X146.338 Y97.953 E29.30789
G1 X146.515 Y97.733 E29.32197
G1 X146.672 Y97.493 E29.33628
G1 X146.807 Y97.226 E29.35121
G1 X146.914 Y96.95 E29.36598
G1 X146.987 Y96.679 E29.37998
G1 X147.033 Y96.385 E29.39483
G1 X147.05 Y96.076 E29.41027
G1 X147.035 Y88.43 E29.79173
G1 X146.963 Y88.291 E29.79954
G1 X141.739 Y83.068 E30.16808
G1 X141.574 Y82.954 E30.17809
G1 X128.477 Y82.954 E30.8315
G1 X128.331 Y83.01 E30.8393
G1 X122.995 Y88.346 E31.21578
G1 X122.951 Y88.525 E31.22498
G1 X122.951 Y96.093 E31.60255
G1 X122.967 Y96.385 E31.61714
G1 X123.013 Y96.679 E31.63199
G1 X123.086 Y96.951 E31.64604
G1 X123.192 Y97.226 E31.66074
G1 X123.328 Y97.493 E31.67569
G1 X123.485 Y97.733 E31.69
G1 X123.662 Y97.953 E31.70408
G1 X123.887 Y98.178 E31.71996
G1 X124.106 Y98.356 E31.73404
G1 X124.346 Y98.512 E31.74832
G1 X124.614 Y98.647 E31.76329
G1 X124.89 Y98.754 E31.77806
G1 X125.161 Y98.827 E31.79206
G0 F7500 X125.358 Y98.857
G1 F1500 E25.29206
G0 F7500 X125.426 Y98.358
G0 X141.124 Y98.309
G0 X141.123 Y95.694
G0 X140.366 Y95.599
;TYPE:SKIN
G1 F1500 E31.79206
G1 X140.664 Y95.789 E31.80969
G1 X140.989 Y95.852 E31.82621
G1 X142.996 Y95.853 E31.92634
G1 X143.275 Y95.805 E31.94046
G1 X143.505 Y95.695 E31.95318
G1 X143.781 Y95.455 E31.97143
G1 X143.932 Y95.029 E31.99398
G1 X143.931 Y90.907 E32.19963
G1 X143.87 Y90.586 E32.21593
G1 X143.683 Y90.297 E32.2331
G1 X143.484 Y90.132 E32.246
G1 X143.154 Y89.986 E32.264
G1 X140.863 Y89.991 E32.3783
G1 X140.465 Y90.172 E32.40011
G1 X140.262 Y90.366 E32.41412
G1 X140.125 Y90.616 E32.42835
G1 X140.068 Y90.9 E32.4428
G1 X140.065 Y95.06 E32.65034
G1 X140.171 Y95.331 E32.66486
G1 X140.366 Y95.599 E32.68139
G1 F1500 E26.18139
G0 F7500 X141.126 Y95.594
G0 X140.597 Y95.323
G0 X140.245 Y91.465
G0 X136.781 Y91.013
G0 X133.394 Y91.673
G1 F1500 E32.68139
G1 X133.836 Y91.875 E32.70564
G1 X136.135 Y91.878 E32.82034
G1 X136.419 Y91.789 E32.83518
G1 X136.789 Y91.479 E32.85927
G1 X136.958 Y91.046 E32.88246
G1 X136.961 Y86.901 E33.08925
G1 X136.842 Y86.449 E33.11257
G1 X136.648 Y86.208 E33.128
G1 X136.358 Y86.024 E33.14514
G1 X136.038 Y85.963 E33.16139
G1 X133.87 Y85.962 E33.26955
G1 X133.638 Y86.028 E33.28159
G1 X133.354 Y86.204 E33.29826
G1 X133.166 Y86.44 E33.31331
G1 X133.04 Y86.746 E33.32982
G1 X133.042 Y90.946 E33.53936
G1 X133.081 Y91.193 E33.55183
G1 X133.202 Y91.455 E33.56623
G1 X133.394 Y91.673 E33.58072
G1 F1500 E27.08072
G0 F7500 X133.553 Y91.462
G0 X129.754 Y91.373
G0 X126.499 Y95.704
G1 F1500 E33.58072
G1 X126.773 Y95.821 E33.59559
G1 X127.005 Y95.854 E33.60728
G1 X129.106 Y95.852 E33.7121
G1 X129.367 Y95.77 E33.72575
G1 X129.631 Y95.601 E33.74139
G1 X129.817 Y95.36 E33.75657
G1 X129.934 Y95.058 E33.77273
G1 X129.932 Y90.905 E33.97993
G1 X129.875 Y90.614 E33.99472
G1 X129.739 Y90.367 E34.00879
G1 X129.535 Y90.172 E34.02287
G1 X129.137 Y89.992 E34.04466
G1 X126.845 Y89.986 E34.15901
G1 X126.52 Y90.126 E34.17666
G1 X126.307 Y90.309 E34.19067
G1 X126.127 Y90.591 E34.20736
G1 X126.069 Y90.906 E34.22334
G1 X126.067 Y95.03 E34.42909
G1 X126.193 Y95.382 E34.44774
G1 X126.499 Y95.704 E34.4699
G1 F1500 E27.9699
G0 F7500 X127.125 Y95.594
G0 X126.603 Y95.553
G0 X126.601 Y98.309
G0 X125.133 Y98.031
G1 F1500 E34.4699
G1 X124.723 Y97.848 E34.4923
G1 X124.302 Y97.542 E34.51827
G1 X123.988 Y97.109 E34.54496
G1 X123.809 Y96.708 E34.56686
G1 X123.711 Y96.246 E34.59043
G1 X123.711 Y88.706 E34.9666
G1 X128.702 Y83.714 E35.31878
G1 X141.31 Y83.714 E35.94779
G1 X146.276 Y88.68 E36.29817
G1 X146.29 Y96.047 E36.66571
G1 X146.275 Y96.31 E36.67885
G1 X146.19 Y96.707 E36.69911
G1 X146.012 Y97.109 E36.72104
G1 X145.696 Y97.544 E36.74787
G1 X145.19 Y97.911 E36.77905
G1 X144.594 Y98.108 E36.81037
G1 X144.207 Y98.13 E36.82971
G1 X125.592 Y98.128 E37.75841
G1 X125.133 Y98.031 E37.78182
G0 F7500 X125.089 Y98.286
G0 X124.347 Y97.814
G0 X123.738 Y97.189
G0 X124.16 Y97.007
G1 F1500 X124.829 Y97.676 E37.82902
G0 F7500 X125.646 Y97.927
G1 F1500 X123.909 Y96.191 E37.95154
G0 F7500 X123.909 Y95.625
G1 F1500 X126.212 Y97.927 E38.11399
G0 F7500 X126.777 Y97.927
G1 F1500 X123.909 Y95.059 E38.31635
G0 F7500 X123.909 Y94.494
G1 F1500 X127.343 Y97.927 E38.5586
G0 F7500 X127.909 Y97.927
G1 F1500 X123.909 Y93.928 E38.84079
G0 F7500 X123.909 Y93.362
G1 F1500 X126.006 Y95.459 E38.98874
G0 F7500 X126.445 Y95.898
G1 F1500 X128.474 Y97.927 E39.1319
G0 F7500 X129.04 Y97.927
G1 F1500 X127.164 Y96.051 E39.26426
G0 F7500 X127.729 Y96.051
G1 F1500 X129.606 Y97.927 E39.39666
G0 F7500 X130.171 Y97.927
G1 F1500 X128.294 Y96.05 E39.52909
G0 F7500 X128.859 Y96.049
G1 F1500 X130.737 Y97.927 E39.66159
G0 F7500 X131.303 Y97.927
G1 F1500 X129.363 Y95.988 E39.79843
G0 F7500 X129.721 Y95.78
G1 F1500 X131.869 Y97.928 E39.94999
G0 F7500 X132.435 Y97.928
G1 F1500 X129.981 Y95.474 E40.12313
G0 F7500 X130.133 Y95.06
G1 F1500 X133.001 Y97.928 E40.32548
G0 F7500 X133.566 Y97.928
G1 F1500 X130.133 Y94.494 E40.56773
G0 F7500 X130.133 Y93.929
G1 F1500 X134.132 Y97.928 E40.84989
G0 F7500 X134.698 Y97.928
G1 F1500 X130.133 Y93.363 E41.17197
G0 F7500 X130.133 Y92.797
G1 F1500 X135.263 Y97.928 E41.53396
G0 F7500 X135.829 Y97.928
G1 F1500 X130.133 Y92.232 E41.93584
G0 F7500 X130.133 Y91.666
G1 F1500 X136.395 Y97.928 E42.37766
G0 F7500 X136.96 Y97.928
G1 F1500 X130.133 Y91.1 E42.85937
G0 F7500 X129.971 Y90.373
G1 F1500 X137.526 Y97.928 E43.39242
G0 F7500 X138.093 Y97.929
G1 F1500 X126.43 Y86.267 E44.21527
G0 F7500 X126.147 Y86.549
G1 F1500 X129.564 Y89.966 E44.45636
G0 F7500 X128.818 Y89.786
G1 F1500 X125.865 Y86.832 E44.66475
G0 F7500 X125.582 Y87.115
G1 F1500 X128.252 Y89.786 E44.85316
G0 F7500 X127.687 Y89.786
G1 F1500 X125.299 Y87.398 E45.02165
G0 F7500 X125.016 Y87.681
G1 F1500 X127.121 Y89.786 E45.17017
G0 F7500 X126.629 Y89.859
G1 F1500 X124.733 Y87.964 E45.30391
G0 F7500 X124.45 Y88.246
G1 F1500 X126.275 Y90.071 E45.43267
G0 F7500 X126.021 Y90.383
G1 F1500 X124.167 Y88.529 E45.56348
G0 F7500 X123.909 Y88.837
G1 F1500 X125.882 Y90.81 E45.70269
G0 F7500 X125.871 Y91.364
G1 F1500 X123.909 Y89.403 E45.84108
G0 F7500 X123.909 Y89.968
G1 F1500 X125.871 Y91.93 E45.97951
G0 F7500 X125.87 Y92.495
G1 F1500 X123.909 Y90.534 E46.11787
G0 F7500 X123.909 Y91.1
G1 F1500 X125.87 Y93.06 E46.25619
G0 F7500 X125.87 Y93.626
G1 F1500 X123.909 Y91.665 E46.39455
G0 F7500 X123.909 Y92.231
G1 F1500 X125.869 Y94.191 E46.53284
G0 F7500 X125.869 Y94.757
G1 F1500 X123.909 Y92.797 E46.67113
G0 F7500 X123.451 Y92.797
G0 X123.515 Y88.624
G0 X126.39 Y85.66
G0 X126.713 Y85.984
G1 F1500 X138.658 Y97.929 E47.51391
G0 F7500 X139.224 Y97.929
G1 F1500 X126.996 Y85.701 E48.37667
G0 F7500 X127.279 Y85.418
G1 F1500 X132.844 Y90.984 E48.76934
G0 F7500 X132.843 Y90.417
G1 F1500 X127.562 Y85.135 E49.14198
G0 F7500 X127.844 Y84.852
G1 F1500 X132.842 Y89.85 E49.49462
G0 F7500 X132.842 Y89.284
G1 F1500 X128.127 Y84.569 E49.82728
G0 F7500 X128.41 Y84.287
G1 F1500 X132.841 Y88.717 E50.13988
G0 F7500 X132.841 Y88.152
G1 F1500 X128.693 Y84.004 E50.43254
G0 F7500 X129.168 Y83.913
