;FLAVOR:Marlin
;TIME:1300
;Filament used: 0.629502m
;Layer height: 0.15
;MINX:80.9
;MINY:77.9
;MINZ:0.3
;MAXX:139.1
;MAXY:142.1
;MAXZ:1.5
;TARGET_MACHINE.NAME:Anet A8
;Generated with Cura_SteamEngine 5.6.0
M140 S60
M105
M190 S60
M104 S200
M105
M109 S200
M82 ;absolute extrusion mode
G28 X Y
G1 Z15.0 F2000 ;Move the platform
M106 S120
G92 E0
G92 E0
G1 F1500 E-6.5
;LAYER_COUNT:9
;LAYER:0
M107
M204 S1000
G0 F7500 X82.035 Y78.895 Z0.3
;TYPE:SKIRT
G1 F1500 E0
G1 X82.478 Y78.538 E0.02838
G1 X82.971 Y78.255 E0.05674
G1 X83.442 Y78.071 E0.08197
G1 X84.049 Y77.939 E0.11296
G1 X84.408 Y77.91 E0.13093
G1 X84.74 Y77.901 E0.1475
G1 X134.845 Y77.9 E2.64725
G1 X135.543 Y77.91 E2.68208
G1 X136.14 Y77.97 E2.71201
G1 X136.69 Y78.116 E2.7404
G1 X137.154 Y78.318 E2.76565
G1 X137.635 Y78.62 E2.79398
G1 X138.108 Y79.039 E2.82551
G1 X138.463 Y79.481 E2.85379
G1 X138.746 Y79.975 E2.8822
G1 X138.947 Y80.506 E2.91052
G1 X139.062 Y81.053 E2.93841
G1 X139.09 Y81.409 E2.95623
G1 X139.099 Y81.74 E2.97275
G1 X139.1 Y137.809 E5.77004
G1 X139.091 Y138.536 E5.80631
G1 X139.033 Y139.133 E5.83624
G1 X138.887 Y139.683 E5.86463
G1 X138.657 Y140.202 E5.89295
G1 X138.348 Y140.68 E5.92134
G1 X137.967 Y141.103 E5.94975
G1 X137.526 Y141.46 E5.97805
G1 X137.032 Y141.744 E6.00648
G1 X136.501 Y141.945 E6.03481
G1 X135.955 Y142.061 E6.06266
G1 X135.592 Y142.09 E6.08082
G1 X135.26 Y142.099 E6.09739
G1 X85.161 Y142.1 E8.59684
G1 X84.463 Y142.091 E8.63167
G1 X83.865 Y142.032 E8.66165
G1 X83.315 Y141.886 E8.69004
G1 X82.795 Y141.655 E8.71843
G1 X82.319 Y141.347 E8.74671
G1 X81.896 Y140.966 E8.77511
G1 X81.539 Y140.523 E8.8035
G1 X81.256 Y140.031 E8.83182
G1 X81.054 Y139.499 E8.86021
G1 X80.939 Y138.953 E8.88804
G1 X80.91 Y138.588 E8.90631
G1 X80.901 Y138.244 E8.92348
G1 X80.9 Y82.126 E11.72322
G1 X80.909 Y81.461 E11.7564
G1 X80.969 Y80.862 E11.78643
G1 X81.115 Y80.314 E11.81472
G1 X81.345 Y79.795 E11.84305
G1 X81.655 Y79.317 E11.87147
G1 X82.035 Y78.895 E11.8998
G0 F7500 X82.289 Y79.204
G1 F1500 X82.68 Y78.883 E11.92504
G1 X83.117 Y78.628 E11.95028
G1 X83.588 Y78.444 E11.97551
G1 X84.082 Y78.338 E12.00072
G1 X84.419 Y78.31 E12.01759
G1 X84.74 Y78.301 E12.03361
G1 X134.839 Y78.3 E14.53306
G1 X135.537 Y78.31 E14.56789
G1 X136.04 Y78.357 E14.59309
G1 X136.53 Y78.483 E14.61833
G1 X136.994 Y78.685 E14.64358
G1 X137.42 Y78.957 E14.66879
G1 X137.798 Y79.292 E14.69399
G1 X138.118 Y79.683 E14.7192
G1 X138.373 Y80.12 E14.74444
G1 X138.556 Y80.591 E14.76965
G1 X138.663 Y81.085 E14.79487
G1 X138.69 Y81.42 E14.81164
G1 X138.699 Y81.74 E14.82761
G1 X138.7 Y137.804 E17.62465
G1 X138.691 Y138.531 E17.66093
G1 X138.645 Y139.034 E17.68612
G1 X138.52 Y139.524 E17.71135
G1 X138.319 Y139.988 E17.73658
G1 X138.048 Y140.415 E17.76181
G1 X137.713 Y140.794 E17.78705
G1 X137.323 Y141.115 E17.81225
G1 X136.887 Y141.371 E17.83747
G1 X136.416 Y141.554 E17.86268
G1 X135.922 Y141.662 E17.88791
G1 X135.581 Y141.69 E17.90498
G1 X135.26 Y141.699 E17.921
G1 X85.166 Y141.7 E20.4202
G1 X84.468 Y141.691 E20.45503
G1 X83.964 Y141.644 E20.48028
G1 X83.474 Y141.519 E20.50551
G1 X83.01 Y141.318 E20.53074
G1 X82.584 Y141.047 E20.55593
G1 X82.205 Y140.712 E20.58116
G1 X81.884 Y140.321 E20.6064
G1 X81.629 Y139.885 E20.6316
G1 X81.445 Y139.414 E20.65683
G1 X81.338 Y138.92 E20.68205
G1 X81.31 Y138.577 E20.69922
G1 X81.301 Y138.244 E20.71584
G1 X81.3 Y82.131 E23.51532
G1 X81.309 Y81.466 E23.5485
G1 X81.356 Y80.962 E23.57376
G1 X81.482 Y80.473 E23.59895
G1 X81.683 Y80.009 E23.62418
G1 X81.954 Y79.582 E23.64941
G1 X82.289 Y79.204 E23.67461
G1 F1500 E17.17461
;MESH:Anet-a8-psu-cover_hex-grid-socket-side.stl
G0 F7500 X86.1 Y83.1
G0 X87.663 Y87.6
;TYPE:WALL-INNER
G1 F1500 E23.67461
G1 F1492.5 X93.487 Y87.6 E23.96662
G1 F1217 X93.833 Y87.6 E23.9879
G1 F1500 E17.4879
G0 F7500 X96.877 Y93.2
G0 X94.025 Y98.8
G0 X97.163 Y104.234
G0 X103.438 Y104.566
G0 X106.576 Y110
G0 X103.724 Y115.6
G0 X106.862 Y121.034
G0 X113.138 Y121.366
G0 X116.276 Y126.8
G0 X113.138 Y132.234
G0 X113.118 Y132.6
G0 X112.507 Y133.659
G0 X113.116 Y135.835
G0 X114.993 Y137.1
G1 F1500 E23.9879
G1 X105.093 Y137.1 E24.48181
G1 X104.721 Y136.972 E24.50144
G1 X104.573 Y136.801 E24.51272
G1 F1474.2 X104.523 Y136.291 E24.53873
G1 X104.227 Y136.801 E24.56867
G1 F1500 X104.078 Y136.972 E24.57998
G1 X103.792 Y137.1 E24.59562
G1 X96.895 Y137.1 E24.93971
G1 F1503.8 X96.446 Y136.923 E24.96373
G1 F1507.5 X95.933 Y136.035 E25.01464
G1 F1503.8 X95.934 Y136.637 E25.04459
G1 F1500 X95.728 Y136.939 E25.06283
G1 X95.406 Y137.1 E25.08079
G1 X86.5 Y137.1 E25.52512
G1 X86.075 Y136.925 E25.54805
G1 X85.9 Y136.589 E25.56695
G1 X85.9 Y135.104 E25.64103
G1 X85.98 Y134.803 E25.65657
G1 X87.195 Y132.699 E25.77779
G1 X87.322 Y132.546 E25.78771
G1 F1492.5 X87.663 Y132.4 E25.80631
G1 X87.322 Y132.254 E25.8249
G1 F1500 X87.195 Y132.101 E25.83482
G1 X85.98 Y129.997 E25.95604
G1 X85.9 Y129.778 E25.96767
G1 X85.9 Y123.904 E26.26073
G1 X85.98 Y123.603 E26.27626
G1 X87.195 Y121.499 E26.39748
G1 X87.322 Y121.346 E26.4074
G1 F1492.5 X87.663 Y121.2 E26.426
G1 X87.322 Y121.054 E26.4446
G1 F1500 X87.195 Y120.901 E26.45452
G1 X85.98 Y118.797 E26.57573
G1 X85.9 Y118.578 E26.58736
G1 X85.9 Y112.704 E26.88042
G1 X85.98 Y112.403 E26.89596
G1 X87.195 Y110.299 E27.01717
G1 X87.322 Y110.146 E27.02709
G1 F1492.5 X87.663 Y110 E27.04569
G1 X87.322 Y109.854 E27.06429
G1 F1500 X87.195 Y109.701 E27.07421
G1 X85.98 Y107.597 E27.19542
G1 X85.9 Y107.378 E27.20705
G1 X85.9 Y101.504 E27.50011
G1 X85.98 Y101.203 E27.51565
G1 X87.195 Y99.099 E27.63686
G1 X87.322 Y98.946 E27.64678
G1 F1492.5 X87.663 Y98.8 E27.66538
G1 X87.322 Y98.654 E27.68398
G1 F1500 X87.195 Y98.501 E27.6939
G1 X85.98 Y96.397 E27.81511
G1 X85.9 Y96.178 E27.82675
G1 X85.9 Y90.304 E28.1198
G1 X85.98 Y90.003 E28.13534
G1 X87.195 Y87.899 E28.25655
G1 X87.322 Y87.746 E28.26647
G1 F1492.5 X87.663 Y87.6 E28.28507
G1 X87.322 Y87.454 E28.30367
G1 F1500 X87.195 Y87.301 E28.31359
G1 X85.98 Y85.197 E28.43481
G1 X85.9 Y84.978 E28.44644
G1 X85.9 Y83.5 E28.52018
G1 X86.075 Y83.075 E28.54311
G1 X86.411 Y82.9 E28.56201
G1 X95.318 Y82.9 E29.00638
G1 X95.728 Y83.061 E29.02835
G1 X95.934 Y83.363 E29.04659
G1 F1481.5 X95.983 Y83.873 E29.07247
G1 F1474.2 X96.443 Y83.082 E29.11892
G1 F1492.5 X96.807 Y82.9 E29.13933
G1 F1500 X103.706 Y82.9 E29.48352
G1 X104.078 Y83.028 E29.50315
G1 X104.227 Y83.199 E29.51446
G1 X104.573 Y83.8 E29.54906
G1 X104.573 Y83.199 E29.57905
G1 X104.721 Y83.028 E29.59033
G1 X105.007 Y82.9 E29.60596
G1 X114.907 Y82.9 E30.09987
G1 X115.279 Y83.028 E30.1195
G1 X115.428 Y83.199 E30.13082
G1 F1474.2 X115.477 Y83.709 E30.15682
G1 X115.774 Y83.199 E30.18678
G1 F1500 X115.922 Y83.028 E30.19807
G1 X116.208 Y82.9 E30.2137
G1 X123.105 Y82.9 E30.55779
G1 F1503.8 X123.554 Y83.076 E30.58179
G1 F1507.5 X124.067 Y83.965 E30.63274
G1 F1503.8 X124.066 Y83.363 E30.6627
G1 F1500 X124.272 Y83.061 E30.68094
G1 X124.594 Y82.9 E30.6989
G1 X133.5 Y82.9 E31.14322
G1 X133.924 Y83.076 E31.16613
G1 X134.1 Y83.5 E31.18903
G1 X134.1 Y84.978 E31.26277
G1 X134.02 Y85.196 E31.27435
G1 X132.805 Y87.301 E31.39561
G1 X132.679 Y87.454 E31.4055
G1 X132.285 Y87.6 E31.42646
G1 X132.679 Y87.746 E31.44742
G1 X132.805 Y87.899 E31.45731
G1 X134.02 Y90.004 E31.57857
G1 X134.1 Y90.304 E31.59406
G1 X134.1 Y96.178 E31.88712
G1 X134.02 Y96.396 E31.8987
G1 X132.805 Y98.501 E32.01996
G1 X132.679 Y98.654 E32.02985
G1 X132.285 Y98.8 E32.05081
G1 X132.679 Y98.946 E32.07177
G1 X132.805 Y99.099 E32.08166
G1 X134.02 Y101.204 E32.20292
G1 X134.1 Y101.504 E32.21841
G1 X134.1 Y107.378 E32.51146
G1 X134.02 Y107.596 E32.52305
G1 X132.805 Y109.701 E32.64431
G1 X132.679 Y109.854 E32.65419
G1 X132.285 Y110 E32.67516
G1 X132.679 Y110.146 E32.69612
G1 X132.805 Y110.299 E32.70601
G1 X134.02 Y112.404 E32.82727
G1 X134.1 Y112.704 E32.84276
G1 X134.1 Y118.578 E33.13581
G1 X134.02 Y118.796 E33.1474
G1 X132.805 Y120.901 E33.26865
G1 X132.679 Y121.054 E33.27854
G1 X132.285 Y121.2 E33.2995
G1 X132.679 Y121.346 E33.32047
G1 X132.805 Y121.499 E33.33036
G1 X134.02 Y123.604 E33.45161
G1 X134.1 Y123.904 E33.4671
G1 X134.1 Y129.778 E33.76016
G1 X134.02 Y129.996 E33.77174
G1 X132.805 Y132.101 E33.893
G1 X132.679 Y132.254 E33.90289
G1 X132.285 Y132.4 E33.92385
G1 X132.679 Y132.546 E33.94482
G1 X132.805 Y132.699 E33.9547
G1 X134.02 Y134.804 E34.07596
G1 X134.1 Y135.104 E34.09145
G1 X134.1 Y136.589 E34.16554
G1 X133.924 Y136.924 E34.18442
G1 X133.589 Y137.1 E34.2033
G1 X124.682 Y137.1 E34.64767
G1 X124.272 Y136.939 E34.66964
G1 X124.066 Y136.637 E34.68788
G1 F1481.5 X124.017 Y136.127 E34.71376
G1 F1474.2 X123.559 Y136.917 E34.76012
G1 F1492.5 X123.193 Y137.1 E34.78064
G1 F1500 X116.294 Y137.1 E35.12483
G1 X115.922 Y136.972 E35.14446
G1 X115.774 Y136.801 E35.15574
G1 X115.427 Y136.2 E35.19036
G1 X115.428 Y136.801 E35.22035
G1 X115.279 Y136.972 E35.23166
G1 X114.993 Y137.1 E35.24729
G0 F7500 X115.427 Y136.2
G1 F1503.8 X113.406 Y132.7 E35.44842
G1 F1219.5 X113.232 Y132.4 E35.46971
G1 F1025.6 X106.768 Y132.4 E35.94135
G1 F1222 X106.594 Y132.1 E35.96259
G1 F1507.5 X103.706 Y127.1 E36.24922
G1 F1219.5 X103.532 Y126.8 E36.2705
G1 F1025.6 X97.069 Y126.8 E36.74207
G1 F1222 X96.895 Y126.5 E36.76331
G1 F1507.5 X94.007 Y121.5 E37.04994
G1 F1219.5 X93.833 Y121.2 E37.07122
G1 F1217 X94.006 Y120.9 E37.09252
G1 F1503.8 X96.896 Y115.9 E37.37992
G1 F1222 X97.069 Y115.6 E37.40113
G0 F7500 X103.532 Y115.6
G1 F1217 X103.705 Y115.3 E37.42242
G1 F1503.8 X106.595 Y110.3 E37.70982
G1 F1222 X106.768 Y110 E37.73103
G0 F7500 X113.232 Y110
G1 F1217 X113.405 Y109.7 E37.75233
G1 F1503.8 X116.295 Y104.7 E38.03973
G1 F1222 X116.468 Y104.4 E38.06094
G0 F7500 X122.931 Y104.4
G1 F1217 X123.104 Y104.1 E38.08223
G1 F1503.8 X125.994 Y99.1 E38.36963
G1 F1222 X126.167 Y98.8 E38.39084
G0 F7500 X132.285 Y98.8
G1 F1445.8 X131.265 Y98.8 E38.44364
G1 F1345.3 X130.245 Y98.8 E38.50038
G1 F1260.5 X129.225 Y98.8 E38.56093
G1 F1183.4 X128.205 Y98.8 E38.62543
G1 F1115.2 X127.185 Y98.8 E38.69388
G1 F1056.3 X126.165 Y98.8 E38.76614
G1 F1222 X125.993 Y98.5 E38.78732
G1 F1507.5 X123.105 Y93.5 E39.07395
G1 F1219.5 X122.931 Y93.2 E39.09523
G1 F1025.6 X116.468 Y93.2 E39.5668
G1 F1222 X116.294 Y92.9 E39.58804
G1 F1507.5 X113.406 Y87.9 E39.87467
G1 F1219.5 X113.232 Y87.6 E39.89595
G0 F7500 X115.477 Y83.709
G1 F1379.3 X114.916 Y84.681 E39.95684
G1 F1255.2 X114.355 Y85.654 E40.0238
G1 F1151.6 X113.794 Y86.627 E40.09679
G1 F1063.8 X113.232 Y87.6 E40.17583
G1 F1025.6 X106.768 Y87.6 E40.64747
G1 F1222 X106.594 Y87.3 E40.66871
G1 F1503.8 X104.573 Y83.8 E40.86984
G0 F7500 X106.768 Y87.6
G1 F1222 X106.595 Y87.9 E40.89105
G1 F1503.8 X103.705 Y92.9 E41.17845
G1 F1217 X103.532 Y93.2 E41.19975
G0 F7500 X97.069 Y93.2
G1 F1222 X96.896 Y93.5 E41.22095
G1 F1503.8 X94.006 Y98.5 E41.50836
G1 F1217 X93.833 Y98.8 E41.52965
G1 F1219.5 X94.007 Y99.1 E41.55093
G1 F1507.5 X96.895 Y104.1 E41.83756
G1 F1222 X97.069 Y104.4 E41.8588
G1 F1025.6 X103.532 Y104.4 E42.33037
G1 F1219.5 X103.706 Y104.7 E42.35165
G1 F1507.5 X106.594 Y109.7 E42.63829
G1 F1222 X106.768 Y110 E42.65952
G1 F1025.6 X113.232 Y110 E43.13117
G1 F1219.5 X113.406 Y110.3 E43.15245
G1 F1507.5 X116.294 Y115.3 E43.43908
G1 F1222 X116.468 Y115.6 E43.46032
G1 F1025.6 X122.931 Y115.6 E43.93189
G1 F1219.5 X123.105 Y115.9 E43.95317
G1 F1507.5 X125.993 Y120.9 E44.2398
G1 F1222 X126.167 Y121.2 E44.26104
G1 F1056.3 X127.187 Y121.2 E44.3333
G1 F1115.2 X128.207 Y121.2 E44.40175
G1 F1183.4 X129.227 Y121.2 E44.46625
G1 F1260.5 X130.247 Y121.2 E44.5268
G1 F1345.3 X131.267 Y121.2 E44.58354
G1 F1445.8 X132.287 Y121.2 E44.63634
G0 F7500 X126.167 Y121.2
G1 F1222 X125.994 Y121.5 E44.65755
G1 F1503.8 X123.104 Y126.5 E44.94495
G1 F1217 X122.931 Y126.8 E44.96624
G0 F7500 X116.468 Y126.8
G1 F1222 X116.295 Y127.1 E44.98745
G1 F1503.8 X113.405 Y132.1 E45.27485
G1 F1217 X113.232 Y132.4 E45.29615
G0 F7500 X106.768 Y132.4
G1 F1219.5 X106.594 Y132.7 E45.31743
G1 F1474.2 X104.523 Y136.291 E45.52786
G0 F7500 X103.958 Y136.934
G0 X96.643 Y136.934
G0 X95.933 Y136.035
G1 F1507.5 X94.007 Y132.7 E45.71904
G1 F1219.5 X93.833 Y132.4 E45.74032
G1 F1217 X94.006 Y132.1 E45.76162
G1 F1503.8 X96.896 Y127.1 E46.04902
G1 F1222 X97.069 Y126.8 E46.07023
G0 F7500 X103.532 Y126.8
G1 F1217 X103.705 Y126.5 E46.09152
G1 F1503.8 X106.595 Y121.5 E46.37892
G1 F1222 X106.768 Y121.2 E46.40013
G0 F7500 X113.232 Y121.2
G1 F1217 X113.405 Y120.9 E46.42142
G1 F1503.8 X116.295 Y115.9 E46.70883
G1 F1222 X116.468 Y115.6 E46.73003
G0 F7500 X122.931 Y115.6
G1 F1217 X123.104 Y115.3 E46.75133
G1 F1503.8 X125.994 Y110.3 E47.03873
G1 F1222 X126.167 Y110 E47.05994
G0 F7500 X132.285 Y110
G1 F1445.8 X131.265 Y110 E47.11273
G1 F1345.3 X130.245 Y110 E47.16948
G1 F1260.5 X129.225 Y110 E47.23003
G1 F1183.4 X128.205 Y110 E47.29453
G1 F1115.2 X127.185 Y110 E47.36298
G1 F1056.3 X126.165 Y110 E47.43524
G1 F1222 X125.993 Y109.7 E47.45642
G1 F1507.5 X123.105 Y104.7 E47.74305
G1 F1219.5 X122.931 Y104.4 E47.76433
G1 F1025.6 X116.468 Y104.4 E48.2359
G1 F1222 X116.294 Y104.1 E48.25714
G1 F1507.5 X113.406 Y99.1 E48.54377
G1 F1219.5 X113.232 Y98.8 E48.56505
G1 F1025.6 X106.768 Y98.8 E49.03669
G1 F1222 X106.594 Y98.5 E49.05793
G1 F1507.5 X103.706 Y93.5 E49.34456
G1 F1219.5 X103.532 Y93.2 E49.36585
G1 F1025.6 X97.069 Y93.2 E49.83741
G1 F1222 X96.895 Y92.9 E49.85865
G1 F1507.5 X94.007 Y87.9 E50.14528
G1 F1219.5 X93.833 Y87.6 E50.16657
G1 F1217 X94.006 Y87.3 E50.18786
G1 F1481.5 X95.983 Y83.873 E50.38771
G0 F7500 X94.025 Y87.6
G0 X96.877 Y93.2
G0 X93.833 Y98.8
G1 F1217 X93.487 Y98.8 E50.40899
G1 F1492.5 X87.663 Y98.8 E50.701
G0 F7500 X93.739 Y98.966
G0 X97.069 Y104.4
G1 F1222 X96.896 Y104.7 E50.72221
G1 F1503.8 X94.006 Y109.7 E51.00961
G1 F1217 X93.833 Y110 E51.03091
G1 F1219.5 X94.007 Y110.3 E51.05219
G1 F1507.5 X96.895 Y115.3 E51.33882
G1 F1222 X97.069 Y115.6 E51.36006
G1 F1025.6 X103.532 Y115.6 E51.83163
G1 F1219.5 X103.706 Y115.9 E51.85291
G1 F1507.5 X106.594 Y120.9 E52.13954
G1 F1222 X106.768 Y121.2 E52.16078
G1 F1025.6 X113.232 Y121.2 E52.63242
G1 F1219.5 X113.406 Y121.5 E52.6537
G1 F1507.5 X116.294 Y126.5 E52.94034
G1 F1222 X116.468 Y126.8 E52.96157
G1 F1025.6 X122.931 Y126.8 E53.43314
G1 F1219.5 X123.105 Y127.1 E53.45442
G1 F1507.5 X125.993 Y132.1 E53.74106
G1 F1222 X126.167 Y132.4 E53.7623
G1 F1056.3 X127.187 Y132.4 E53.83456
G1 F1115.2 X128.207 Y132.4 E53.903
G1 F1183.4 X129.227 Y132.4 E53.9675
G1 F1260.5 X130.247 Y132.4 E54.02806
G1 F1345.3 X131.267 Y132.4 E54.0848
G1 F1445.8 X132.287 Y132.4 E54.13759
G1 F1500 E47.63759
G0 F7500 X132.537 Y132.566
G0 X133.938 Y134.986
G0 X134.052 Y137.052
G0 X134.05 Y137.719
G0 X134.9 Y137.9
G1 F1500 E54.13759
G1 X134.9 Y82.1 E56.92147
G1 X85.102 Y82.102 E59.4059
G1 X85.102 Y137.898 E62.18957
G1 X134.9 Y137.9 E64.67401
G1 F1500 E58.17401
G0 F7500 X126.165 Y137.719
G0 X126.165 Y137.28
G0 X126.167 Y132.4
G1 F1500 E64.67401
G1 F1222 X125.994 Y132.7 E64.69521
G1 F1485.1 X124.017 Y136.127 E64.89457
G1 F1500 E58.39457
G0 F7500 X123.357 Y136.934
G0 X116.042 Y136.934
G0 X113.138 Y132.566
G0 X106.862 Y132.566
G0 X103.958 Y136.934
G0 X96.643 Y136.934
G0 X93.833 Y132.4
G1 F1500 E64.89457
G1 F1217 X93.487 Y132.4 E64.91585
G1 F1492.5 X87.663 Y132.4 E65.20786
G0 F7500 X87.463 Y132.234
G0 X86.062 Y129.814
G0 X86.062 Y123.786
G0 X87.463 Y121.366
G0 X87.663 Y121.2
G1 F1492.5 X93.487 Y121.2 E65.49987
G1 F1217 X93.833 Y121.2 E65.52115
G0 F7500 X96.877 Y115.6
G0 X93.833 Y110
G1 F1217 X93.487 Y110 E65.54243
G1 F1492.5 X87.663 Y110 E65.83444
G0 F7500 X93.739 Y109.834
G0 X97.163 Y104.566
G0 X103.532 Y104.4
G1 F1217 X103.705 Y104.1 E65.85573
G1 F1503.8 X106.595 Y99.1 E66.14313
G1 F1222 X106.768 Y98.8 E66.16434
G0 F7500 X113.232 Y98.8
G1 F1217 X113.405 Y98.5 E66.18564
G1 F1503.8 X116.295 Y93.5 E66.47304
G1 F1222 X116.468 Y93.2 E66.49425
G0 F7500 X122.931 Y93.2
G1 F1217 X123.104 Y92.9 E66.51554
G1 F1503.8 X125.994 Y87.9 E66.80294
G1 F1222 X126.167 Y87.6 E66.82415
G0 F7500 X124.067 Y83.965
G1 F1507.5 X125.993 Y87.3 E67.01533
G1 F1222 X126.167 Y87.6 E67.03657
G1 F1056.3 X127.187 Y87.6 E67.10883
G1 F1115.2 X128.207 Y87.6 E67.17727
G1 F1183.4 X129.227 Y87.6 E67.24177
G1 F1260.5 X130.247 Y87.6 E67.30233
G1 F1345.3 X131.267 Y87.6 E67.35907
G1 F1445.8 X132.287 Y87.6 E67.41187
G1 F1500 E60.91187
